emilioandrade0/PickGOLD/src/reports/backtest_predictions_before.csv
game_id,date,season,home_team,away_team,home_elo_pre,away_elo_pre,diff_elo,home_rest_days,away_rest_days,diff_rest_days,home_is_b2b,away_is_b2b,diff_is_b2b,home_games_last_3_days,away_games_last_3_days,diff_games_last_3_days,home_games_last_5_days,away_games_last_5_days,diff_games_last_5_days,home_games_last_7_days,away_games_last_7_days,diff_games_last_7_days,home_win_pct_L5,away_win_pct_L5,diff_win_pct_L5,home_win_pct_L10,away_win_pct_L10,diff_win_pct_L10,home_pts_diff_L5,away_pts_diff_L5,diff_pts_diff_L5,home_pts_diff_L10,away_pts_diff_L10,diff_pts_diff_L10,home_q1_win_pct_L5,away_q1_win_pct_L5,diff_q1_win_pct_L5,home_q1_diff_L5,away_q1_diff_L5,diff_q1_diff_L5,home_pts_scored_L5,away_pts_scored_L5,diff_pts_scored_L5,home_pts_conceded_L5,away_pts_conceded_L5,diff_pts_conceded_L5,home_home_only_win_pct_L5,away_away_only_win_pct_L5,diff_surface_win_pct_L5,home_home_only_pts_diff_L5,away_away_only_pts_diff_L5,diff_surface_pts_diff_L5,home_home_only_q1_win_pct_L5,away_away_only_q1_win_pct_L5,diff_surface_q1_win_pct_L5,home_spread,spread_abs,home_is_favorite,odds_over_under,market_missing,TARGET_home_win,TARGET_home_win_q1,actual_game_home_win,pred_game_home_win,prob_game_home_win,prob_game_away_win,game_confidence,game_pick_side,game_pick_team,game_correct,game_tier,actual_q1_home_win,pred_q1_home_win,prob_q1_home_win,prob_q1_away_win,q1_confidence,q1_pick_side,q1_pick_team,q1_correct,q1_tier,game_conf_bucket,q1_conf_bucket
401810153,2025-11-29,2025-26,GSW,NOP,1564.3274560048612,1299.2565269197894,265.07092908507184,3.0,3.0,0.0,0,0,0,1,1,0,2,2,0,2,3,-1,0.2,0.2,0.0,0.5,0.1,0.4,-2.6,-3.8,1.1999999999999995,1.8,-9.9,11.7,0.2,1.0,-0.8,-5.2,7.6,-12.8,113.2,120.4,-7.200000000000003,115.8,124.2,-8.400000000000006,0.6,0.2,0.3999999999999999,10.2,-12.4,22.6,0.6,0.4,0.1999999999999999,0.0,0.0,0,0.0,0,1,0,1,1,0.8359816833149407,0.16401831668505928,83.59816833149407,HOME,GSW,1,ELITE,0,1,0.5833906702782021,0.41660932972179787,58.339067027820214,HOME,GSW,0,NORMAL,80+,55-59.9
401810152,2025-11-29,2025-26,MIL,BKN,1493.627875467586,1289.5256586278638,204.10221683972213,1.0,1.0,0.0,1,1,0,2,1,1,3,2,1,4,3,1,0.0,0.2,-0.2,0.2,0.2,0.0,-9.2,-8.2,-1.0,-7.8,-8.9,1.1000000000000003,0.2,0.2,0.0,-4.0,-3.6,-0.3999999999999999,109.0,104.8,4.200000000000003,118.2,113.0,5.200000000000003,0.2,0.4,-0.2,-9.0,-4.4,-4.6,0.2,0.2,0.0,0.0,0.0,0,0.0,0,1,1,1,1,0.6277663142061013,0.3722336857938987,62.77663142061013,HOME,MIL,1,STRONG,1,1,0.5611304896802253,0.4388695103197747,56.113048968022525,HOME,MIL,1,PASS,60-64.9,55-59.9
401810151,2025-11-29,2025-26,MIA,DET,1534.834464300853,1577.123290944491,-42.288826643638,3.0,1.0,2.0,0,1,-1,1,2,-1,2,3,-1,3,4,-1,1.0,0.6,0.4,0.8,0.8,0.0,13.4,4.0,9.4,5.4,6.0,-0.5999999999999996,1.0,1.0,0.0,5.2,4.0,1.2000000000000002,118.4,118.8,-0.3999999999999915,105.0,114.8,-9.799999999999995,0.8,0.8,0.0,1.8,5.2,-3.4000000000000004,1.0,1.0,0.0,0.0,0.0,0,0.0,0,0,0,0,1,0.6219667359450642,0.37803326405493576,62.19667359450642,HOME,MIA,0,STRONG,0,1,0.5228777968931292,0.4771222031068708,52.28777968931292,HOME,MIA,0,PASS,60-64.9,50-54.9
401810149,2025-11-29,2025-26,CHA,TOR,1264.0081073829203,1502.677092632829,-238.6689852499087,1.0,3.0,-2.0,1,0,1,2,1,1,2,2,0,4,3,1,0.2,1.0,-0.8,0.2,0.9,-0.7,-9.6,12.4,-22.0,-7.5,9.5,-17.0,0.2,0.6,-0.3999999999999999,-3.8,3.0,-6.8,113.6,117.4,-3.8000000000000114,123.2,105.0,18.200000000000003,0.4,0.8,-0.4,-7.6,8.0,-15.6,0.4,0.6,-0.1999999999999999,0.0,0.0,0,0.0,0,1,0,1,0,0.22353847109009017,0.7764615289099098,77.64615289099098,AWAY,TOR,0,ELITE,0,0,0.49247640691979633,0.5075235930802037,50.75235930802037,AWAY,TOR,1,PASS,75-79.9,50-54.9
401810148,2025-11-29,2025-26,MIN,BOS,1613.098887300289,1621.2404497216603,-8.141562421370963,3.0,3.0,0.0,0,0,0,1,1,0,2,1,1,2,2,0,0.4,0.8,-0.4,0.6,0.7,-0.0999999999999999,4.2,4.2,0.0,9.8,7.5,2.3000000000000007,0.6,0.6,0.0,1.4,2.4,-1.0,114.0,118.8,-4.799999999999997,109.8,114.6,-4.799999999999997,0.8,0.6,0.2,15.6,0.8,14.8,1.0,0.2,0.8,0.0,0.0,0,0.0,0,1,0,1,1,0.5849813481382162,0.41501865186178377,58.49813481382162,HOME,MIN,1,NORMAL,0,1,0.5462711644337139,0.45372883556628607,54.62711644337139,HOME,MIN,0,PASS,55-59.9,50-54.9
401810150,2025-11-29,2025-26,IND,CHI,1519.2690560318338,1480.3387137944046,38.93034223742916,1.0,1.0,0.0,1,1,0,2,1,1,3,2,1,3,3,0,0.4,0.4,0.0,0.2,0.3,-0.0999999999999999,4.8,-10.8,15.6,-9.9,-7.5,-2.4000000000000004,0.6,0.0,0.6,2.0,-3.2,5.2,113.4,119.2,-5.799999999999997,108.6,130.0,-21.40000000000001,0.4,0.4,0.0,2.0,-3.8,5.8,0.4,0.2,0.2,0.0,0.0,0,0.0,0,1,0,1,1,0.6019979402307557,0.3980020597692443,60.19979402307557,HOME,IND,1,STRONG,0,1,0.5314936294372264,0.46850637056277356,53.14936294372264,HOME,IND,0,PASS,60-64.9,50-54.9
401810161,2025-11-30,2025-26,MIN,SAS,1620.514918399752,1507.60577532021,112.90914307954222,1.0,2.0,-1.0,1,0,1,1,1,0,2,2,0,3,3,0,0.4,0.8,-0.4,0.6,0.7,-0.0999999999999999,0.2,5.2,-5.0,6.2,4.4,1.7999999999999998,0.4,0.4,0.0,-2.0,1.0,-3.0,113.8,120.4,-6.6000000000000085,113.6,115.2,-1.6000000000000083,0.8,0.6,0.2,8.4,1.8,6.6000000000000005,0.8,0.8,0.0,0.0,0.0,0,0.0,0,1,0,1,1,0.6007835147662517,0.3992164852337483,60.07835147662517,HOME,MIN,1,STRONG,0,1,0.5405175358083326,0.4594824641916674,54.051753580833264,HOME,MIN,0,PASS,60-64.9,50-54.9
401810162,2025-11-30,2025-26,SAC,MEM,1440.420062148263,1488.6981856800749,-48.27812353181184,2.0,2.0,0.0,0,0,0,1,1,0,2,2,0,3,3,0,0.4,0.8,-0.4,0.2,0.4,-0.2,-10.4,9.4,-19.8,-14.0,-3.4,-10.6,0.0,0.2,-0.2,-10.0,-3.4,-6.6,112.0,119.8,-7.799999999999997,122.4,110.4,12.0,0.2,0.6,-0.3999999999999999,-16.2,-0.4,-15.8,0.2,0.4,-0.2,0.0,0.0,0,0.0,0,0,1,0,0,0.4435089800542096,0.5564910199457904,55.64910199457904,AWAY,MEM,1,PASS,1,1,0.5260768661252917,0.4739231338747083,52.60768661252917,HOME,SAC,1,PASS,55-59.9,50-54.9
401810163,2025-11-30,2025-26,LAL,NOP,1629.431164960103,1297.077538019421,332.35362694068226,2.0,1.0,1.0,0,1,-1,1,1,0,2,2,0,3,3,0,1.0,0.2,0.8,0.8,0.1,0.7000000000000001,13.4,-4.0,17.4,4.4,-8.4,12.8,0.6,1.0,-0.4,2.0,7.0,-5.0,126.2,116.0,10.200000000000005,112.8,120.0,-7.200000000000003,1.0,0.2,0.8,10.6,-7.8,18.4,0.4,0.6,-0.1999999999999999,0.0,0.0,0,0.0,0,1,1,1,1,0.8464639945917731,0.15353600540822687,84.64639945917732,HOME,LAL,1,ELITE,1,1,0.5793779276523443,0.4206220723476557,57.937792765234434,HOME,LAL,1,NORMAL,80+,55-59.9
401810160,2025-11-30,2025-26,POR,OKC,1475.1926351543766,1817.3826857776835,-342.19005062330666,4.0,2.0,2.0,0,0,0,0,1,-1,1,2,-1,3,3,0,0.4,1.0,-0.6,0.3,1.0,-0.7,-5.0,17.0,-22.0,-6.6,18.2,-24.8,0.8,0.6,0.2,-1.4,3.2,-4.6,112.0,123.0,-11.0,117.0,106.0,11.0,0.2,1.0,-0.8,-7.4,21.4,-28.8,0.6,0.2,0.3999999999999999,0.0,0.0,0,0.0,0,0,0,0,0,0.23969372549403192,0.7603062745059681,76.03062745059681,AWAY,OKC,1,ELITE,0,1,0.5021171675161594,0.4978828324838406,50.211716751615945,HOME,POR,0,PASS,75-79.9,50-54.9
401810157,2025-11-30,2025-26,CLE,BOS,1614.9225434748848,1613.8244186221975,1.098124852687306,2.0,1.0,1.0,0,1,-1,1,1,0,1,2,-1,3,3,0,0.4,0.6,-0.1999999999999999,0.5,0.6,-0.0999999999999999,-0.4,2.8,-3.2,1.7,4.2,-2.5,0.6,0.6,0.0,-3.2,1.8,-5.0,113.2,117.6,-4.399999999999992,113.6,114.8,-1.2000000000000028,0.8,0.4,0.4,7.2,-0.2,7.4,0.4,0.2,0.2,0.0,0.0,0,0.0,0,0,0,0,1,0.5917003317964379,0.4082996682035621,59.17003317964379,HOME,CLE,0,NORMAL,0,1,0.5336666850211462,0.4663333149788538,53.36666850211462,HOME,CLE,0,PASS,55-59.9,50-54.9
401810158,2025-11-30,2025-26,NYK,TOR,1610.0588728491675,1488.8851229652903,121.17374988387724,2.0,1.0,1.0,0,1,-1,1,1,0,2,2,0,3,4,-1,0.8,0.8,0.0,0.7,0.9,-0.2,8.0,9.2,-1.1999999999999993,7.8,9.8,-2.000000000000001,0.2,0.6,-0.3999999999999999,-0.6,4.6,-5.199999999999999,118.8,115.4,3.3999999999999915,110.8,106.2,4.599999999999994,0.8,0.8,0.0,9.8,8.6,1.200000000000001,0.4,0.6,-0.1999999999999999,0.0,0.0,0,0.0,0,1,1,1,1,0.7224302635572037,0.27756973644279626,72.24302635572037,HOME,NYK,1,ELITE,1,1,0.5437489486850753,0.4562510513149247,54.374894868507525,HOME,NYK,1,PASS,70-74.9,50-54.9
401810156,2025-11-30,2025-26,UTA,HOU,1305.4421677756943,1639.7172390500973,-334.275071274403,2.0,4.0,-2.0,0,0,0,1,0,1,1,1,0,3,2,1,0.2,0.8,-0.6000000000000001,0.3,0.8,-0.5,-11.2,7.4,-18.6,-8.6,9.5,-18.1,0.8,0.4,0.4,6.6,-0.4,7.0,117.8,111.6,6.200000000000003,129.0,104.2,24.8,0.4,0.8,-0.4,-6.4,6.4,-12.8,0.4,0.6,-0.1999999999999999,0.0,0.0,0,0.0,0,0,0,0,0,0.26893654347493023,0.7310634565250698,73.10634565250697,AWAY,HOU,1,ELITE,0,1,0.5114027291129692,0.48859727088703075,51.140272911296925,HOME,UTA,0,PASS,70-74.9,50-54.9
401810159,2025-11-30,2025-26,PHI,ATL,1378.2844708793457,1507.17372400071,-128.8892531213644,2.0,2.0,0.0,0,0,0,1,1,0,2,2,0,3,3,0,0.4,0.6,-0.1999999999999999,0.5,0.7,-0.1999999999999999,-7.8,-0.2,-7.6,-3.7,3.9,-7.6,0.4,0.6,-0.1999999999999999,1.2,-1.4,2.6,114.0,119.4,-5.400000000000006,121.8,119.6,2.200000000000003,0.4,0.6,-0.1999999999999999,-11.2,0.2,-11.4,0.2,0.6,-0.3999999999999999,0.0,0.0,0,0.0,0,0,1,0,0,0.2568904364084369,0.7431095635915631,74.31095635915631,AWAY,ATL,1,ELITE,1,1,0.5168330179993854,0.4831669820006146,51.68330179993854,HOME,PHI,1,PASS,70-74.9,50-54.9
401810172,2025-12-01,2025-26,LAL,PHX,1630.9640675978435,1502.553960223676,128.4101073741674,1.0,2.0,-1.0,1,0,1,2,2,0,2,3,-1,3,4,-1,1.0,0.4,0.6,0.8,0.6,0.2,11.0,-4.6,15.6,5.4,3.7,1.7000000000000002,0.6,0.2,0.3999999999999999,3.4,1.6,1.7999999999999998,129.0,109.2,19.8,118.0,113.8,4.200000000000003,1.0,0.8,0.1999999999999999,11.0,9.0,2.0,0.4,0.8,-0.4,0.0,0.0,0,0.0,0,0,0,0,1,0.7249698325955474,0.27503016740445263,72.49698325955474,HOME,LAL,0,ELITE,0,1,0.5424976320262269,0.4575023679737731,54.24976320262269,HOME,LAL,0,PASS,70-74.9,50-54.9
401810170,2025-12-01,2025-26,DEN,DAL,1662.556759683488,1412.1334956375615,250.42326404592652,2.0,2.0,0.0,0,0,0,2,2,0,2,2,0,3,3,0,0.6,0.4,0.1999999999999999,0.7,0.3,0.3999999999999999,4.6,-2.6,7.199999999999999,6.6,-4.9,11.5,0.8,0.2,0.6000000000000001,3.8,-3.6,7.4,125.2,109.8,15.400000000000006,120.6,112.4,8.199999999999989,0.4,0.4,0.0,6.2,-5.6,11.8,0.6,0.2,0.3999999999999999,0.0,0.0,0,0.0,0,0,1,0,1,0.8236536442416684,0.17634635575833157,82.36536442416684,HOME,DEN,0,ELITE,1,1,0.5688699198556126,0.43113008014438736,56.88699198556127,HOME,DEN,1,PASS,80+,55-59.9
401810169,2025-12-01,2025-26,ORL,CHI,1541.3232450388548,1474.137122425907,67.18612261294811,3.0,2.0,1.0,0,0,0,1,2,-1,1,2,-1,2,3,-1,0.8,0.2,0.6000000000000001,0.8,0.3,0.5,15.0,-11.4,26.4,10.6,-7.1,17.7,0.4,0.2,0.2,0.2,-2.8,3.0,129.4,115.0,14.400000000000006,114.4,126.4,-12.0,1.0,0.4,0.6,11.6,-3.6,15.2,0.8,0.4,0.4,0.0,0.0,0,0.0,0,1,1,1,1,0.7374130902746208,0.26258690972537924,73.74130902746208,HOME,ORL,1,ELITE,1,1,0.5557756672181228,0.44422433278187723,55.577566721812275,HOME,ORL,1,PASS,70-74.9,55-59.9
401810168,2025-12-01,2025-26,MIA,LAC,1523.1885133775547,1486.8348210684828,36.3536923090719,2.0,2.0,0.0,0,0,0,1,2,-1,2,2,0,3,3,0,0.8,0.2,0.6000000000000001,0.7,0.2,0.4999999999999999,10.0,-5.2,15.2,4.6,-6.7,11.3,0.8,0.8,0.0,0.8,4.0,-3.2,123.4,114.2,9.200000000000005,113.4,119.4,-6.0,0.8,0.2,0.6000000000000001,4.0,-9.4,13.4,0.8,0.6,0.2,0.0,0.0,0,0.0,0,1,1,1,1,0.6632739248037844,0.33672607519621556,66.32739248037845,HOME,MIA,1,PREMIUM,1,1,0.5547051665527928,0.4452948334472072,55.470516655279276,HOME,MIA,1,PASS,65-69.9,55-59.9
401810171,2025-12-01,2025-26,UTA,HOU,1301.320166781217,1643.8392400445746,-342.51907326335754,1.0,1.0,0.0,1,1,0,2,1,1,2,2,0,3,3,0,0.2,0.8,-0.6000000000000001,0.3,0.8,-0.5,-14.0,12.2,-26.2,-7.4,10.8,-18.200000000000003,0.6,0.6,0.0,3.0,2.8,0.2000000000000001,112.8,114.0,-1.2000000000000028,126.8,101.8,25.0,0.4,1.0,-0.6,-10.0,14.2,-24.2,0.4,0.6,-0.1999999999999999,0.0,0.0,0,0.0,0,1,0,1,0,0.2122176082597398,0.7877823917402602,78.77823917402603,AWAY,HOU,0,ELITE,0,0,0.4902076222010854,0.5097923777989146,50.97923777989146,AWAY,HOU,1,PASS,75-79.9,50-54.9
401810166,2025-12-01,2025-26,WAS,MIL,1228.139312151888,1496.5874245135312,-268.4481123616431,3.0,2.0,1.0,0,0,0,1,2,-1,1,3,-2,2,4,-2,0.2,0.2,0.0,0.1,0.2,-0.1,-11.2,-4.0,-7.199999999999999,-14.3,-6.3,-8.0,0.4,0.4,0.0,0.2,-0.8,1.0,111.4,109.4,2.0,122.6,113.4,9.199999999999989,0.2,0.2,0.0,-14.8,-6.6,-8.200000000000001,0.4,0.4,0.0,0.0,0.0,0,0.0,0,1,0,1,0,0.34397200014021667,0.6560279998597833,65.60279998597834,AWAY,MIL,0,PREMIUM,0,1,0.5059320102370897,0.49406798976291033,50.593201023708964,HOME,WAS,0,PASS,65-69.9,50-54.9
401810165,2025-12-01,2025-26,IND,CLE,1525.4706474003317,1602.092143024058,-76.62149562372633,2.0,1.0,1.0,0,1,-1,2,2,0,3,2,1,4,3,1,0.4,0.4,0.0,0.3,0.5,-0.2,3.4,1.2,2.2,-6.6,1.7,-8.299999999999999,0.4,0.6,-0.1999999999999999,0.8,-0.8,1.6,108.6,115.4,-6.800000000000011,105.2,114.2,-9.0,0.6,0.4,0.1999999999999999,4.2,5.4,-1.2000000000000002,0.4,0.6,-0.1999999999999999,0.0,0.0,0,0.0,0,0,0,0,0,0.46019805921589985,0.5398019407841002,53.980194078410015,AWAY,CLE,1,PASS,0,1,0.5380917709949311,0.4619082290050689,53.80917709949311,HOME,IND,0,PASS,50-54.9,50-54.9
401810164,2025-12-01,2025-26,DET,ATL,1588.769241867789,1516.344135476723,72.42510639106604,2.0,1.0,1.0,0,1,-1,2,2,0,3,2,1,4,3,1,0.6,0.8,-0.2,0.8,0.7,0.1,3.0,3.2,-0.2000000000000001,6.0,4.4,1.5999999999999996,1.0,0.4,0.6,5.6,-3.4,9.0,122.4,122.6,-0.1999999999999886,119.4,119.4,0.0,0.8,0.6,0.2,6.8,-0.2,7.0,0.8,0.4,0.4,0.0,0.0,0,0.0,0,1,0,1,1,0.6871619855390725,0.3128380144609275,68.71619855390725,HOME,DET,1,PREMIUM,0,1,0.5586644345012968,0.44133556549870323,55.86644345012968,HOME,DET,0,PASS,65-69.9,55-59.9
401810167,2025-12-01,2025-26,BKN,CHA,1286.5661095819185,1277.800077050459,8.76603253145936,2.0,2.0,0.0,0,0,0,2,2,0,2,3,-1,3,3,0,0.2,0.4,-0.2,0.2,0.3,-0.0999999999999999,-8.8,-6.4,-2.4000000000000004,-8.8,-5.8,-3.000000000000001,0.2,0.2,0.0,-4.2,-5.4,1.2000000000000002,104.8,113.6,-8.799999999999997,113.6,120.0,-6.400000000000006,0.0,0.0,0.0,-13.4,-9.0,-4.4,0.6,0.0,0.6,0.0,0.0,0,0.0,0,1,0,1,1,0.5665296018259447,0.4334703981740553,56.65296018259447,HOME,BKN,1,PASS,0,1,0.516724755757783,0.483275244242217,51.6724755757783,HOME,BKN,0,PASS,55-59.9,50-54.9
401810173,2025-12-02,2025-26,PHI,WAS,1369.1140594033322,1242.640367675879,126.47369172745334,2.0,1.0,1.0,0,1,-1,1,1,0,2,2,0,3,3,0,0.4,0.4,0.0,0.4,0.2,0.2,-7.6,-8.4,0.8000000000000007,-5.5,-10.7,5.199999999999999,0.6,0.4,0.1999999999999999,3.0,0.0,3.0,118.4,115.4,3.0,126.0,123.8,2.200000000000003,0.2,0.0,0.2,-13.2,-19.6,6.400000000000002,0.2,0.2,0.0,0.0,0.0,0,0.0,0,1,1,1,1,0.5400829856343333,0.4599170143656667,54.008298563433335,HOME,PHI,1,PASS,1,1,0.5324145249532114,0.4675854750467886,53.24145249532114,HOME,PHI,1,PASS,50-54.9,50-54.9
401810174,2025-12-02,2025-26,TOR,POR,1484.5108501725429,1471.2177394479884,13.29311072455448,2.0,2.0,0.0,0,0,0,2,1,1,2,1,1,3,2,1,0.6,0.4,0.1999999999999999,0.8,0.3,0.5,-1.2,-6.4,5.2,6.6,-7.1,13.7,0.4,0.6,-0.1999999999999999,-1.4,-2.6,1.2000000000000002,106.2,110.8,-4.599999999999994,107.4,117.2,-9.799999999999995,1.0,0.4,0.6,11.0,-8.0,19.0,0.6,0.6,0.0,0.0,0.0,0,0.0,0,1,0,1,1,0.6537454497424215,0.34625455025757845,65.37454497424216,HOME,TOR,1,PREMIUM,0,1,0.5417615885480591,0.4582384114519409,54.17615885480591,HOME,TOR,0,PASS,65-69.9,50-54.9
401810175,2025-12-02,2025-26,BOS,NYK,1626.6548190730243,1614.433145641915,12.221673431109366,2.0,2.0,0.0,0,0,0,2,1,1,2,2,0,3,3,0,0.6,0.8,-0.2,0.7,0.7,0.0,0.4,12.0,-11.6,5.7,6.4,-0.7000000000000002,0.8,0.4,0.4,2.2,3.4,-1.1999999999999995,118.4,119.4,-1.0,118.0,107.4,10.599999999999994,0.8,0.6,0.2,8.6,5.8,2.8,0.8,0.2,0.6000000000000001,0.0,0.0,0,0.0,0,1,0,1,1,0.5521045801680835,0.4478954198319165,55.21045801680835,HOME,BOS,1,PASS,0,1,0.5284111880348568,0.47158881196514324,52.84111880348568,HOME,BOS,0,PASS,55-59.9,50-54.9
401810176,2025-12-02,2025-26,NOP,MIN,1295.54463538168,1625.053955078479,-329.5093196967989,2.0,2.0,0.0,0,0,0,2,2,0,2,2,0,3,3,0,0.2,0.4,-0.2,0.1,0.6,-0.5,-5.8,0.6,-6.4,-8.8,4.8,-13.6,0.8,0.2,0.6000000000000001,1.4,-4.0,5.4,117.2,114.8,2.4000000000000057,123.0,114.2,8.799999999999997,0.2,0.4,-0.2,-6.6,4.0,-10.6,0.8,0.4,0.4,0.0,0.0,0,0.0,0,0,0,0,0,0.2392880624782439,0.7607119375217561,76.07119375217562,AWAY,MIN,1,ELITE,0,1,0.5151246280284013,0.4848753719715987,51.51246280284013,HOME,NOP,0,PASS,75-79.9,50-54.9
401810177,2025-12-02,2025-26,SAS,MEM,1503.066738641483,1500.1759604577862,2.890778183696739,2.0,2.0,0.0,0,0,0,1,1,0,2,2,0,3,3,0,0.6,0.8,-0.2,0.6,0.5,0.0999999999999999,0.6,2.8,-2.2,2.4,-1.2,3.6,0.6,0.0,0.6,2.2,-6.8,9.0,120.6,115.4,5.199999999999989,120.0,112.6,7.400000000000006,0.6,0.8,-0.2,5.2,2.8,2.4000000000000004,0.6,0.2,0.3999999999999999,0.0,0.0,0,0.0,0,1,1,1,1,0.6362237202242265,0.36377627977577354,63.622372022422645,HOME,SAS,1,STRONG,1,1,0.533096666975194,0.466903333024806,53.3096666975194,HOME,SAS,1,PASS,60-64.9,50-54.9
401810178,2025-12-02,2025-26,GSW,OKC,1566.50644490523,1821.3575814840715,-254.85113657884156,3.0,2.0,1.0,0,0,0,1,1,0,1,2,-1,2,3,-1,0.4,1.0,-0.6,0.5,1.0,-0.5,0.6,15.8,-15.2,-0.5,17.6,-18.1,0.2,0.6,-0.3999999999999999,-4.6,3.8,-8.399999999999999,111.4,125.0,-13.599999999999994,110.8,109.2,1.5999999999999943,0.6,1.0,-0.4,9.6,16.8,-7.200000000000001,0.4,0.4,0.0,0.0,0.0,0,0.0,0,0,0,0,0,0.43381533808649453,0.5661846619135055,56.61846619135055,AWAY,OKC,1,PASS,0,1,0.5095531876506818,0.4904468123493182,50.95531876506818,HOME,GSW,0,PASS,55-59.9,50-54.9
401810184,2025-12-03,2025-26,CHI,BKN,1468.6091665167985,1293.5339825386031,175.07518397819513,2.0,2.0,0.0,0,0,0,1,1,0,3,3,0,3,3,0,0.2,0.2,0.0,0.3,0.3,0.0,-5.2,-7.8,2.6,-7.2,-3.9,-3.3000000000000003,0.2,0.2,0.0,-2.6,-3.2,0.6000000000000001,117.6,105.4,12.199999999999989,122.8,113.2,9.599999999999994,0.6,0.4,0.1999999999999999,-5.4,-0.6,-4.800000000000001,0.2,0.2,0.0,0.0,0.0,0,0.0,0,0,0,0,1,0.6229430560480391,0.3770569439519609,62.29430560480391,HOME,CHI,0,STRONG,0,1,0.561695035778359,0.438304964221641,56.1695035778359,HOME,CHI,0,PASS,60-64.9,55-59.9
401810186,2025-12-03,2025-26,MIL,DET,1482.0863689895405,1594.1773815281524,-112.09101253861196,2.0,2.0,0.0,0,0,0,1,1,0,3,3,0,4,4,0,0.2,0.6,-0.3999999999999999,0.2,0.8,-0.6000000000000001,-2.0,0.6,-2.6,-5.5,5.9,-11.4,0.6,0.8,-0.2,1.2,4.4,-3.2,111.4,116.4,-5.0,113.4,115.8,-2.3999999999999915,0.2,0.8,-0.6000000000000001,-8.2,5.2,-13.4,0.2,1.0,-0.8,0.0,0.0,0,0.0,0,1,0,1,0,0.41997140677684497,0.580028593223155,58.0028593223155,AWAY,DET,0,NORMAL,0,1,0.501892331386769,0.49810766861323097,50.189233138676904,HOME,MIL,0,PASS,55-59.9,50-54.9
401810183,2025-12-03,2025-26,NYK,CHA,1607.555315235418,1270.8322040937744,336.7231111416436,1.0,2.0,-1.0,1,0,1,2,1,1,3,3,0,4,4,0,0.8,0.4,0.4,0.6,0.2,0.3999999999999999,13.2,-6.0,19.2,4.5,-8.2,12.7,0.6,0.4,0.1999999999999999,6.0,-3.6,9.6,118.6,111.0,7.599999999999994,105.4,117.0,-11.599999999999994,0.8,0.0,0.8,7.0,-8.0,15.0,0.4,0.2,0.2,0.0,0.0,0,0.0,0,1,1,1,1,0.8354536687576994,0.16454633124230056,83.54536687576994,HOME,NYK,1,ELITE,1,1,0.5536990374610449,0.4463009625389551,55.369903746104484,HOME,NYK,1,PASS,80+,55-59.9
401810187,2025-12-03,2025-26,DAL,MIA,1429.7853158984483,1529.453744780568,-99.66842888211976,2.0,2.0,0.0,0,0,0,1,1,0,3,2,1,3,3,0,0.4,0.8,-0.4,0.4,0.7,-0.2999999999999999,-1.2,6.2,-7.4,-3.0,6.1,-9.1,0.2,0.8,-0.6000000000000001,-4.6,2.2,-6.8,112.4,122.8,-10.399999999999991,113.6,116.6,-3.0,0.4,0.6,-0.1999999999999999,-1.2,5.8,-7.0,0.4,0.8,-0.4,0.0,0.0,0,0.0,0,1,0,1,0,0.3096106223174995,0.6903893776825005,69.03893776825005,AWAY,MIA,0,PREMIUM,0,1,0.5115073230098401,0.48849267699015986,51.15073230098402,HOME,DAL,0,PASS,65-69.9,50-54.9
401810181,2025-12-03,2025-26,ORL,SAS,1546.8512009479632,1510.1889446125358,36.6622563354274,2.0,1.0,1.0,0,1,-1,1,2,-1,2,3,-1,2,4,-2,0.8,0.6,0.2,0.8,0.6,0.2,10.4,0.2,10.2,10.8,2.7,8.100000000000001,0.4,0.8,-0.4,-0.4,4.2,-4.6000000000000005,128.6,118.8,9.799999999999995,118.2,118.6,-0.3999999999999915,1.0,0.6,0.4,12.0,-0.4,12.4,0.8,0.8,0.0,0.0,0.0,0,0.0,0,0,0,0,1,0.6375152814362972,0.3624847185637028,63.75152814362972,HOME,ORL,0,STRONG,0,1,0.5551197068595439,0.4448802931404561,55.511970685954395,HOME,ORL,0,PASS,60-64.9,55-59.9
401810182,2025-12-03,2025-26,ATL,LAC,1510.9359958163598,1480.5695896654695,30.36640615089027,2.0,2.0,0.0,0,0,0,2,1,1,3,3,0,3,3,0,0.6,0.0,0.6,0.6,0.2,0.3999999999999999,-0.4,-11.6,11.2,1.0,-7.0,8.0,0.6,0.6,0.0,-2.2,0.2,-2.4000000000000004,119.2,112.6,6.6000000000000085,119.6,124.2,-4.6000000000000085,0.6,0.2,0.3999999999999999,2.0,-12.4,14.4,0.6,0.4,0.1999999999999999,0.0,0.0,0,0.0,0,0,0,0,1,0.6727815514979849,0.3272184485020151,67.2781551497985,HOME,ATL,0,PREMIUM,0,1,0.5473004200663489,0.45269957993365106,54.730042006634896,HOME,ATL,0,PASS,65-69.9,50-54.9
401810179,2025-12-03,2025-26,CLE,POR,1612.764016744884,1464.3677145117383,148.39630223314566,2.0,1.0,1.0,0,1,-1,2,2,0,3,2,1,3,3,0,0.4,0.2,0.2,0.5,0.2,0.3,2.2,-7.8,10.0,1.9,-8.2,10.1,0.6,0.6,0.0,1.2,-3.6,4.8,118.4,109.0,9.400000000000006,116.2,116.8,-0.5999999999999943,0.6,0.4,0.1999999999999999,5.2,-3.8,9.0,0.4,0.8,-0.4,0.0,0.0,0,0.0,0,0,0,0,1,0.756599751531027,0.243400248468973,75.65997515310269,HOME,CLE,0,ELITE,0,1,0.5562471896048706,0.44375281039512937,55.624718960487066,HOME,CLE,0,PASS,75-79.9,55-59.9
401810185,2025-12-03,2025-26,HOU,SAC,1627.8081069599596,1428.9422873705516,198.86581958940792,2.0,3.0,-1.0,0,0,0,2,1,1,2,2,0,3,3,0,0.6,0.4,0.1999999999999999,0.8,0.2,0.6000000000000001,8.6,-3.8,12.4,11.1,-13.4,24.5,0.6,0.2,0.3999999999999999,0.2,-6.6,6.8,116.2,114.2,2.0,107.6,118.0,-10.400000000000006,0.8,0.2,0.6000000000000001,11.2,-14.4,25.6,0.4,0.0,0.4,0.0,0.0,0,0.0,0,1,1,1,1,0.8147469506812951,0.1852530493187049,81.4746950681295,HOME,HOU,1,ELITE,1,1,0.5618562303133687,0.43814376968663127,56.185623031336874,HOME,HOU,1,PASS,80+,55-59.9
401810180,2025-12-03,2025-26,IND,DEN,1514.7987736795058,1644.9049394226013,-130.10616574309552,2.0,2.0,0.0,0,0,0,1,1,0,3,3,0,4,3,1,0.4,0.4,0.0,0.3,0.6,-0.3,2.4,2.0,0.3999999999999999,-5.8,4.2,-10.0,0.4,0.8,-0.4,-1.2,4.0,-5.2,110.6,127.0,-16.400000000000006,108.2,125.0,-16.799999999999997,0.6,1.0,-0.4,4.6,9.8,-5.200000000000001,0.4,0.6,-0.1999999999999999,0.0,0.0,0,0.0,0,0,0,0,0,0.47045557667117366,0.5295444233288263,52.954442332882635,AWAY,DEN,1,PASS,0,1,0.5233847450924016,0.4766152549075984,52.338474509240164,HOME,IND,0,PASS,50-54.9,50-54.9
401810188,2025-12-04,2025-26,PHI,GSW,1373.3849612699892,1560.6900034207497,-187.30504215076053,2.0,2.0,0.0,0,0,0,1,1,0,2,2,0,3,2,1,0.4,0.4,0.0,0.5,0.5,0.0,-5.6,1.0,-6.6,-3.3,0.7,-4.0,0.6,0.2,0.3999999999999999,1.0,-4.0,5.0,118.0,114.6,3.4000000000000057,123.6,113.6,10.0,0.2,0.6,-0.3999999999999999,-9.8,0.4,-10.2,0.4,0.2,0.2,0.0,0.0,0,0.0,0,1,1,1,0,0.312819333812711,0.687180666187289,68.7180666187289,AWAY,GSW,0,PREMIUM,1,1,0.5322078858268194,0.46779211417318056,53.22078858268194,HOME,PHI,1,PASS,65-69.9,50-54.9
401810189,2025-12-04,2025-26,WAS,BOS,1238.369465809222,1633.5326494795213,-395.1631836702993,2.0,2.0,0.0,0,0,0,2,1,1,2,3,-1,3,3,0,0.4,0.8,-0.4,0.2,0.7,-0.4999999999999999,-6.2,3.2,-9.4,-12.0,5.9,-17.9,0.4,0.6,-0.1999999999999999,1.6,-1.2,2.8,113.8,122.0,-8.200000000000003,120.0,118.8,1.2000000000000028,0.4,0.6,-0.1999999999999999,-8.0,2.8,-10.8,0.2,0.4,-0.2,0.0,0.0,0,0.0,0,0,0,0,0,0.23537541482543184,0.7646245851745681,76.46245851745681,AWAY,BOS,1,ELITE,0,0,0.4991856798371923,0.5008143201628077,50.08143201628077,AWAY,BOS,1,PASS,75-79.9,50-54.9
401810190,2025-12-04,2025-26,BKN,UTA,1310.1278622731788,1317.351299865832,-7.223437592653227,1.0,3.0,-2.0,1,0,1,2,1,1,3,2,1,4,3,1,0.4,0.4,0.0,0.4,0.4,0.0,-3.8,-6.0,2.2,-1.9,-5.9,4.0,0.4,0.4,0.0,-1.0,0.0,-1.0,106.2,117.0,-10.799999999999995,110.0,123.0,-13.0,0.2,0.2,0.0,-7.2,-16.0,8.8,0.4,0.6,-0.1999999999999999,0.0,0.0,0,0.0,0,0,1,0,1,0.5859159608419668,0.41408403915803316,58.59159608419668,HOME,BKN,0,NORMAL,1,1,0.5040112536335578,0.4959887463664422,50.40112536335578,HOME,BKN,1,PASS,55-59.9,50-54.9
401810191,2025-12-04,2025-26,TOR,LAL,1491.360875108793,1615.197647999166,-123.83677289037314,2.0,3.0,-1.0,0,0,0,1,1,0,3,2,1,3,3,0,0.6,0.8,-0.2,0.8,0.8,0.0,-2.6,4.8,-7.4,5.6,5.7,-0.1000000000000005,0.2,0.6,-0.3999999999999999,-3.0,5.2,-8.2,106.6,122.6,-16.0,109.2,117.8,-8.599999999999994,1.0,0.8,0.1999999999999999,11.2,4.2,6.999999999999999,0.4,0.6,-0.1999999999999999,0.0,0.0,0,0.0,0,0,0,0,0,0.44404449059633416,0.5559555094036659,55.59555094036659,AWAY,LAL,1,PASS,0,1,0.5255171792552252,0.47448282074477477,52.551717925522524,HOME,TOR,0,PASS,55-59.9,50-54.9
401810192,2025-12-04,2025-26,NOP,MIN,1291.332134229798,1629.2664562303612,-337.93432200056327,2.0,2.0,0.0,0,0,0,1,1,0,3,3,0,3,3,0,0.2,0.6,-0.3999999999999999,0.1,0.6,-0.5,-3.8,2.2,-6.0,-8.1,4.8,-12.9,0.6,0.4,0.1999999999999999,-0.6,-1.2,0.6,126.0,122.0,4.0,129.8,119.8,10.000000000000014,0.2,0.4,-0.2,-4.6,0.0,-4.6,0.8,0.4,0.4,0.0,0.0,0,0.0,0,0,0,0,0,0.21406130830877507,0.785938691691225,78.5938691691225,AWAY,MIN,1,ELITE,0,1,0.5263107649992729,0.4736892350007271,52.63107649992729,HOME,NOP,0,PASS,75-79.9,50-54.9
401810201,2025-12-05,2025-26,HOU,PHX,1630.8444742944555,1518.3203798223535,112.52409447210198,2.0,4.0,-2.0,0,0,0,1,0,1,3,1,2,3,3,0,0.8,0.4,0.4,0.8,0.6,0.2,14.4,-3.0,17.4,13.0,4.5,8.5,0.8,0.2,0.6000000000000001,3.2,2.6,0.6000000000000001,118.6,112.0,6.599999999999994,104.2,115.0,-10.799999999999995,0.8,0.8,0.0,14.8,10.2,4.600000000000001,0.6,0.6,0.0,0.0,0.0,0,0.0,0,1,0,1,1,0.6941990130349236,0.3058009869650764,69.41990130349237,HOME,HOU,1,PREMIUM,0,1,0.5467094992024162,0.4532905007975838,54.67094992024162,HOME,HOU,0,PASS,65-69.9,50-54.9
401810204,2025-12-05,2025-26,OKC,DAL,1827.174022968552,1439.7757725174292,387.3982504511225,3.0,2.0,1.0,0,0,0,1,1,0,2,2,0,3,4,-1,1.0,0.6,0.4,1.0,0.5,0.5,11.8,2.0,9.8,16.4,-1.4,17.799999999999997,0.8,0.0,0.8,7.8,-5.8,13.6,121.0,116.8,4.200000000000003,109.2,114.8,-5.599999999999994,1.0,0.4,0.6,16.4,-4.8,21.2,0.8,0.0,0.8,0.0,0.0,0,0.0,0,1,0,1,1,0.7446597058607201,0.25534029413927994,74.465970586072,HOME,OKC,1,ELITE,0,1,0.5527447420424999,0.4472552579575001,55.27447420424999,HOME,OKC,0,PASS,70-74.9,55-59.9
401810203,2025-12-05,2025-26,MIL,PHI,1492.4342358834483,1385.8462149240002,106.5880209594484,2.0,1.0,1.0,0,1,-1,1,2,-1,2,3,-1,4,4,0,0.4,0.6,-0.1999999999999999,0.2,0.5,-0.3,1.2,-3.4,4.6,-6.4,-3.4,-3.0000000000000004,0.6,0.8,-0.2,0.4,7.0,-6.6,113.4,114.4,-1.0,112.2,117.8,-5.599999999999994,0.4,0.4,0.0,-2.6,-0.2,-2.4,0.2,0.6,-0.3999999999999999,0.0,0.0,0,0.0,0,0,0,0,1,0.7647943438110161,0.23520565618898392,76.47943438110161,HOME,MIL,0,ELITE,0,1,0.5464516900744909,0.4535483099255091,54.64516900744909,HOME,MIL,0,PASS,75-79.9,50-54.9
401810202,2025-12-05,2025-26,MEM,LAC,1493.0537544867334,1494.1551217509675,-1.1013672642341137,3.0,2.0,1.0,0,0,0,1,1,0,2,2,0,3,4,-1,0.6,0.2,0.3999999999999999,0.5,0.2,0.3,0.2,-4.0,4.2,-0.6,-5.3,4.7,0.0,0.8,-0.8,-7.4,2.0,-9.4,118.8,114.6,4.200000000000003,118.6,118.6,0.0,0.4,0.4,0.0,3.2,-2.2,5.4,0.6,0.6,0.0,0.0,0.0,0,0.0,0,1,0,1,1,0.6416217553852837,0.35837824461471635,64.16217553852836,HOME,MEM,1,STRONG,0,1,0.5485807121137541,0.45141928788624586,54.85807121137542,HOME,MEM,0,PASS,60-64.9,50-54.9
401810200,2025-12-05,2025-26,CHI,IND,1452.0152867822226,1505.6631364658742,-53.64784968365166,2.0,2.0,0.0,0,0,0,1,1,0,2,2,0,4,4,0,0.0,0.4,-0.4,0.3,0.3,0.0,-7.4,0.4,-7.800000000000001,-7.1,-3.8,-3.3,0.2,0.4,-0.2,-3.4,-1.6,-1.7999999999999998,114.0,111.2,2.799999999999997,121.4,110.8,10.600000000000009,0.4,0.0,0.4,-9.4,-17.4,7.999999999999998,0.0,0.2,-0.2,0.0,0.0,0,0.0,0,0,1,0,0,0.4846425623279734,0.5153574376720266,51.53574376720266,AWAY,IND,1,PASS,1,1,0.5327784917807403,0.4672215082192597,53.277849178074035,HOME,CHI,1,PASS,50-54.9,50-54.9
401810199,2025-12-05,2025-26,TOR,CHA,1482.0458781449224,1269.3345260725737,212.71135207234877,1.0,2.0,-1.0,1,0,1,2,1,1,3,2,1,4,4,0,0.4,0.4,0.0,0.7,0.2,0.4999999999999999,-5.4,-8.4,3.0,3.5,-8.4,11.9,0.2,0.4,-0.2,-3.4,-6.0,2.6,108.6,109.8,-1.2000000000000028,114.0,118.2,-4.200000000000003,0.8,0.0,0.8,4.6,-8.4,13.0,0.2,0.2,0.0,0.0,0.0,0,0.0,0,0,1,0,1,0.7993323797983121,0.20066762020168794,79.9332379798312,HOME,TOR,0,ELITE,1,1,0.5476779376190664,0.45232206238093364,54.76779376190664,HOME,TOR,1,PASS,75-79.9,50-54.9
401810197,2025-12-05,2025-26,DET,POR,1583.8295146342443,1480.5053795080123,103.3241351262318,2.0,2.0,0.0,0,0,0,1,2,-1,2,3,-1,4,3,1,0.4,0.4,0.0,0.7,0.3,0.3999999999999999,-1.2,0.0,-1.2,4.4,-4.6,9.0,0.8,0.8,0.0,5.6,1.2,4.4,113.8,114.4,-0.6000000000000085,115.0,114.4,0.5999999999999943,0.8,0.6,0.2,6.6,-0.4,7.0,0.8,0.8,0.0,0.0,0.0,0,0.0,0,1,1,1,1,0.6961689529218897,0.30383104707811026,69.61689529218897,HOME,DET,1,PREMIUM,1,1,0.5489674207036511,0.4510325792963489,54.896742070365114,HOME,DET,1,PASS,65-69.9,50-54.9
401810196,2025-12-05,2025-26,CLE,SAS,1596.6263517486095,1523.9313530680288,72.69499868058097,2.0,2.0,0.0,0,0,0,1,2,-1,3,3,0,4,4,0,0.2,0.8,-0.6000000000000001,0.5,0.7,-0.1999999999999999,-3.2,2.4,-5.6,2.0,3.4,-1.4,0.4,0.8,-0.4,0.0,3.6,-3.6,116.4,121.2,-4.799999999999997,119.6,118.8,0.7999999999999972,0.4,0.6,-0.1999999999999999,0.4,-0.8,1.2000000000000002,0.4,0.8,-0.4,0.0,0.0,0,0.0,0,1,0,1,1,0.6367278853894425,0.36327211461055753,63.672788538944246,HOME,CLE,1,STRONG,0,1,0.5523373805221623,0.4476626194778377,55.23373805221623,HOME,CLE,0,PASS,60-64.9,55-59.9
401810195,2025-12-05,2025-26,ATL,DEN,1497.3504637308615,1654.0405766362328,-156.69011290537105,2.0,2.0,0.0,0,0,0,1,1,0,3,2,1,4,4,0,0.4,0.6,-0.1999999999999999,0.5,0.6,-0.0999999999999999,-5.6,6.0,-11.6,-2.3,4.3,-6.6,0.4,0.8,-0.4,-4.0,4.0,-8.0,115.0,129.4,-14.400000000000006,120.6,123.4,-2.800000000000012,0.6,1.0,-0.4,-0.2,10.6,-10.8,0.6,0.8,-0.2,0.0,0.0,0,0.0,0,0,1,0,0,0.36028755265781276,0.6397124473421872,63.97124473421872,AWAY,DEN,1,STRONG,1,1,0.5301850420245583,0.4698149579754417,53.01850420245583,HOME,ATL,1,PASS,60-64.9,50-54.9
401810194,2025-12-05,2025-26,ORL,MIA,1533.1087924924702,1519.4632881615871,13.645504330883114,2.0,2.0,0.0,0,0,0,1,1,0,2,2,0,3,3,0,0.6,0.6,0.0,0.7,0.7,0.0,7.6,2.2,5.4,8.9,6.5,2.4000000000000004,0.2,0.8,-0.6000000000000001,-1.2,1.2,-2.4,124.4,119.0,5.400000000000006,116.8,116.8,0.0,0.8,0.4,0.4,10.2,3.6,6.6,0.8,0.8,0.0,0.0,0.0,0,0.0,0,1,1,1,1,0.5802197547658537,0.41978024523414625,58.021975476585375,HOME,ORL,1,NORMAL,1,1,0.5481962934720259,0.4518037065279741,54.81962934720259,HOME,ORL,1,PASS,55-59.9,50-54.9
401810193,2025-12-05,2025-26,BOS,LAL,1636.6243172189183,1624.5126449630366,12.111672255881786,1.0,1.0,0.0,1,1,0,2,1,1,3,3,0,4,4,0,0.8,0.8,0.0,0.8,0.8,0.0,10.4,5.0,5.4,10.6,5.0,5.6,0.6,0.6,0.0,-1.0,5.8,-6.8,123.6,125.6,-2.0,113.2,120.6,-7.399999999999991,0.8,0.8,0.0,2.6,2.8,-0.1999999999999997,0.6,0.8,-0.2,0.0,0.0,0,0.0,0,1,1,1,1,0.7462090013855445,0.25379099861445553,74.62090013855445,HOME,BOS,1,ELITE,1,1,0.5529970022850683,0.4470029977149317,55.29970022850683,HOME,BOS,1,PASS,70-74.9,55-59.9
401810198,2025-12-05,2025-26,NYK,UTA,1609.0529932566187,1329.9599132176438,279.0930800389749,2.0,1.0,1.0,0,1,-1,2,1,1,3,3,0,4,4,0,0.8,0.6,0.2,0.7,0.4,0.2999999999999999,13.6,-3.0,16.6,7.7,-7.0,14.7,0.8,0.4,0.4,9.4,-1.4,10.8,119.8,120.4,-0.6000000000000085,106.2,123.4,-17.200000000000003,0.8,0.2,0.6000000000000001,7.4,-13.8,21.200000000000003,0.4,0.6,-0.1999999999999999,0.0,0.0,0,0.0,0,1,1,1,1,0.8490029344637222,0.15099706553627779,84.90029344637222,HOME,NYK,1,ELITE,1,1,0.5728223830547556,0.42717761694524436,57.282238305475566,HOME,NYK,1,NORMAL,80+,55-59.9
401810211,2025-12-06,2025-26,DAL,HOU,1438.63542292411,1635.3912932064527,-196.7558702823428,1.0,1.0,0.0,1,1,0,2,2,0,3,3,0,4,4,0,0.6,0.8,-0.2,0.4,0.8,-0.4,-1.4,13.8,-15.2,-4.0,12.6,-16.6,0.0,0.6,-0.6,-5.6,0.4,-6.0,118.6,119.2,-0.6000000000000085,120.0,105.4,14.599999999999994,0.6,0.8,-0.2,2.0,11.2,-9.2,0.4,0.8,-0.4,0.0,0.0,0,0.0,0,1,1,1,0,0.32204563843417583,0.6779543615658241,67.79543615658241,AWAY,HOU,0,PREMIUM,1,0,0.4900353845976227,0.5099646154023774,50.99646154023774,AWAY,HOU,0,PASS,65-69.9,50-54.9
401810205,2025-12-06,2025-26,BKN,NOP,1297.519248921367,1287.2786387332253,10.240610188141773,2.0,2.0,0.0,0,0,0,2,1,1,3,2,1,4,4,0,0.4,0.0,0.4,0.4,0.1,0.3,-3.8,-8.2,4.4,-2.5,-7.2,4.7,0.4,0.4,0.0,0.4,-3.0,3.4,108.2,120.6,-12.399999999999991,112.0,128.8,-16.80000000000001,0.2,0.0,0.2,-7.8,-10.6,2.8,0.4,0.4,0.0,0.0,0.0,0,0.0,0,1,1,1,0,0.4759585698749733,0.5240414301250267,52.40414301250267,AWAY,NOP,0,PASS,1,1,0.5305538948770505,0.4694461051229495,53.05538948770505,HOME,BKN,1,PASS,50-54.9,50-54.9
401810206,2025-12-06,2025-26,WAS,ATL,1235.277798069825,1488.9678085963944,-253.6900105265695,2.0,1.0,1.0,0,1,-1,1,2,-1,3,3,0,3,4,-1,0.4,0.4,0.0,0.2,0.4,-0.2,-15.0,-2.0,-13.0,-16.3,-2.6,-13.7,0.2,0.6,-0.3999999999999999,0.2,4.0,-3.8,110.0,119.0,-9.0,125.0,121.0,4.0,0.4,0.4,0.0,-10.4,-0.8,-9.6,0.2,0.4,-0.2,0.0,0.0,0,0.0,0,0,0,0,0,0.31614907652806234,0.6838509234719377,68.38509234719376,AWAY,ATL,1,PREMIUM,0,1,0.5093050983415794,0.49069490165842056,50.930509834157945,HOME,WAS,0,PASS,65-69.9,50-54.9
401810207,2025-12-06,2025-26,CLE,GSW,1602.0283633946924,1548.2287497667387,53.7996136279537,1.0,2.0,-1.0,1,0,1,2,1,1,3,2,1,4,3,1,0.4,0.4,0.0,0.5,0.4,0.0999999999999999,1.6,1.6,0.0,2.5,0.1,2.4,0.2,0.2,0.0,-1.6,-6.6,5.0,122.6,109.6,13.0,121.0,108.0,13.0,0.6,0.4,0.1999999999999999,5.0,-0.8,5.8,0.4,0.2,0.2,0.0,0.0,0,0.0,0,0,1,0,1,0.6317976917829189,0.3682023082170811,63.17976917829189,HOME,CLE,0,STRONG,1,1,0.5349834525896373,0.4650165474103627,53.49834525896373,HOME,CLE,1,PASS,60-64.9,50-54.9
401810208,2025-12-06,2025-26,DET,MIL,1588.5650679332105,1477.1022186690182,111.4628492641923,1.0,1.0,0.0,1,1,0,2,2,0,3,3,0,4,4,0,0.6,0.4,0.1999999999999999,0.7,0.2,0.4999999999999999,0.6,-1.2,1.7999999999999998,4.1,-5.5,9.6,0.8,0.6,0.2,4.8,-1.8,6.6,115.4,113.0,2.4000000000000057,114.8,114.2,0.5999999999999943,0.8,0.0,0.8,5.6,-7.6,13.2,0.8,0.6,0.2,0.0,0.0,0,0.0,0,1,1,1,1,0.776069217182196,0.22393078281780399,77.6069217182196,HOME,DET,1,ELITE,1,1,0.5473026629805251,0.4526973370194749,54.73026629805251,HOME,DET,1,PASS,75-79.9,50-54.9
401810209,2025-12-06,2025-26,MIA,SAC,1512.6223966136629,1425.9059200360557,86.71647657760718,1.0,3.0,-2.0,1,0,1,2,1,1,3,1,2,4,2,2,0.4,0.2,0.2,0.7,0.2,0.4999999999999999,1.2,-10.0,11.2,7.2,-12.7,19.9,0.6,0.2,0.3999999999999999,0.6,-6.0,6.6,118.8,107.6,11.200000000000005,117.6,117.6,0.0,0.8,0.2,0.6000000000000001,7.0,-17.0,24.0,0.8,0.0,0.8,0.0,0.0,0,0.0,0,0,0,0,1,0.7482860014563149,0.25171399854368515,74.82860014563148,HOME,MIA,0,ELITE,0,1,0.528613421301627,0.47138657869837297,52.861342130162704,HOME,MIA,0,PASS,70-74.9,50-54.9
401810210,2025-12-06,2025-26,MIN,LAC,1633.3199517269338,1486.9271835634167,146.39276816351708,2.0,1.0,1.0,0,1,-1,1,2,-1,2,3,-1,4,4,0,0.8,0.2,0.6000000000000001,0.6,0.2,0.3999999999999999,5.0,-2.4,7.4,4.3,-5.9,10.2,0.4,0.8,-0.4,-1.0,2.4,-3.4,124.6,110.6,14.0,119.6,113.0,6.599999999999994,0.8,0.2,0.6000000000000001,8.2,-7.0,15.2,0.6,0.6,0.0,0.0,0.0,0,0.0,0,1,0,1,1,0.775444624234294,0.22455537576570594,77.54446242342941,HOME,MIN,1,ELITE,0,1,0.5580095153415785,0.4419904846584215,55.800951534157846,HOME,MIN,0,PASS,75-79.9,55-59.9
401810217,2025-12-07,2025-26,PHI,LAL,1401.1782321384303,1617.6319568143017,-216.45372467587092,2.0,2.0,0.0,0,0,0,2,2,0,3,2,1,4,4,0,0.8,0.6,0.2,0.6,0.8,-0.2,7.8,-2.6,10.4,-1.0,5.8,-6.8,1.0,0.6,0.4,9.6,1.6,8.0,117.0,119.6,-2.5999999999999943,109.2,122.2,-13.0,0.4,0.8,-0.4,-7.8,4.4,-12.2,0.6,0.8,-0.2,0.0,0.0,0,0.0,0,0,0,0,0,0.2734961569367983,0.7265038430632017,72.65038430632018,AWAY,LAL,1,ELITE,0,1,0.5243820608255965,0.47561793917440354,52.438206082559645,HOME,PHI,0,PASS,70-74.9,50-54.9
401810214,2025-12-07,2025-26,CHA,DEN,1286.497775597507,1662.4232317707,-375.9254561731932,2.0,2.0,0.0,0,0,0,1,1,0,2,2,0,3,3,0,0.6,0.6,0.0,0.3,0.6,-0.3,2.2,4.2,-2.0,-4.6,3.3,-7.899999999999999,0.4,0.6,-0.1999999999999999,-6.0,-0.4,-5.6,111.8,131.2,-19.39999999999999,109.6,127.0,-17.400000000000006,0.4,1.0,-0.6,-8.4,9.4,-17.8,0.2,0.8,-0.6000000000000001,0.0,0.0,0,0.0,0,0,0,0,0,0.2144959665086449,0.7855040334913551,78.55040334913551,AWAY,DEN,1,ELITE,0,1,0.5048398742202069,0.49516012577979307,50.48398742202069,HOME,CHA,0,PASS,75-79.9,50-54.9
401810218,2025-12-07,2025-26,UTA,OKC,1327.93277008032,1828.314372561871,-500.381602481551,2.0,2.0,0.0,0,0,0,2,1,1,2,2,0,4,3,1,0.6,1.0,-0.4,0.4,1.0,-0.6,-6.4,10.6,-17.0,-9.4,15.6,-25.0,0.2,0.6,-0.3999999999999999,-8.8,3.6,-12.4,119.4,123.0,-3.5999999999999943,125.8,112.4,13.399999999999991,0.4,1.0,-0.6,-9.0,16.4,-25.4,0.4,0.6,-0.1999999999999999,0.0,0.0,0,0.0,0,0,0,0,0,0.19131379777018342,0.8086862022298166,80.86862022298166,AWAY,OKC,1,ELITE,0,0,0.48581693925543085,0.5141830607445692,51.41830607445692,AWAY,OKC,1,PASS,80+,50-54.9
401810216,2025-12-07,2025-26,CHI,GSW,1440.6890239689178,1562.3873085167506,-121.69828454783284,2.0,1.0,1.0,0,1,-1,1,2,-1,2,3,-1,3,3,0,0.0,0.4,-0.4,0.3,0.4,-0.1,-7.8,-0.8,-7.0,-8.3,0.5,-8.8,0.4,0.2,0.2,-1.4,-6.0,4.6,109.0,102.6,6.400000000000006,116.8,103.4,13.399999999999991,0.2,0.4,-0.2,-12.8,0.0,-12.8,0.2,0.2,0.0,0.0,0.0,0,0.0,0,0,0,0,1,0.5129971146953332,0.48700288530466684,51.299711469533314,HOME,CHI,0,PASS,0,1,0.5461297695432843,0.4538702304567157,54.61297695432843,HOME,CHI,0,PASS,50-54.9,50-54.9
401810213,2025-12-07,2025-26,TOR,BOS,1464.8826286199892,1643.5050053676534,-178.62237674766425,2.0,2.0,0.0,0,0,0,2,2,0,3,3,0,4,4,0,0.2,0.8,-0.6000000000000001,0.6,0.8,-0.2,-10.8,14.0,-24.8,0.8,9.1,-8.299999999999999,0.4,0.8,-0.4,-1.4,4.6,-6.0,106.4,125.4,-19.0,117.2,111.4,5.799999999999997,0.6,0.6,0.0,-2.4,11.0,-13.4,0.2,0.6,-0.3999999999999999,0.0,0.0,0,0.0,0,0,0,0,0,0.372864906635493,0.627135093364507,62.7135093364507,AWAY,BOS,1,STRONG,0,1,0.5151225921630888,0.48487740783691125,51.51225921630888,HOME,TOR,0,PASS,60-64.9,50-54.9
401810212,2025-12-07,2025-26,NYK,ORL,1611.0801363939424,1539.9496840403945,71.13045235354798,2.0,2.0,0.0,0,0,0,1,1,0,3,2,1,4,3,1,0.8,0.8,0.0,0.7,0.7,0.0,14.8,9.6,5.200000000000001,10.3,8.3,2.0,0.8,0.4,0.4,13.8,0.2,13.6,123.2,119.8,3.4000000000000057,108.4,110.2,-1.7999999999999972,1.0,0.6,0.4,17.6,9.6,8.000000000000002,0.6,0.4,0.1999999999999999,0.0,0.0,0,0.0,0,1,1,1,1,0.7014523922537123,0.29854760774628775,70.14523922537123,HOME,NYK,1,ELITE,1,1,0.5567546574761921,0.4432453425238079,55.675465747619214,HOME,NYK,1,PASS,70-74.9,55-59.9
401810215,2025-12-07,2025-26,MEM,POR,1500.2816926742842,1475.7698262090464,24.511866465237745,2.0,2.0,0.0,0,0,0,1,1,0,2,3,-1,3,4,-1,0.8,0.2,0.6000000000000001,0.6,0.3,0.3,4.0,-3.6,7.6,3.9,-4.7,8.6,0.0,0.6,-0.6,-7.2,-0.2,-7.0,117.2,114.6,2.6000000000000085,113.2,118.2,-5.0,0.6,0.4,0.1999999999999999,8.0,-2.4,10.4,0.6,0.6,0.0,0.0,0.0,0,0.0,0,1,1,1,1,0.6781604049314043,0.3218395950685957,67.81604049314043,HOME,MEM,1,PREMIUM,1,1,0.5517630474984033,0.4482369525015967,55.176304749840334,HOME,MEM,1,PASS,65-69.9,55-59.9
401810219,2025-12-08,2025-26,IND,SAC,1516.989399279179,1440.8161937761204,76.17320550305863,3.0,2.0,1.0,0,0,0,1,1,0,2,2,0,3,2,1,0.6,0.2,0.3999999999999999,0.4,0.3,0.1,3.8,-7.8,11.6,-0.5,-9.7,9.2,0.2,0.4,-0.2,-3.0,-4.6,1.5999999999999996,116.2,109.6,6.6000000000000085,112.4,117.4,-5.0,0.4,0.4,0.0,-0.2,-11.0,10.8,0.2,0.2,0.0,0.0,0.0,0,0.0,0,1,1,1,1,0.6846251850561345,0.31537481494386554,68.46251850561345,HOME,IND,1,PREMIUM,1,1,0.565369496739289,0.43463050326071095,56.5369496739289,HOME,IND,1,PASS,65-69.9,55-59.9
401810220,2025-12-08,2025-26,MIN,PHX,1637.218356892634,1513.7735609103563,123.44479598227758,2.0,3.0,-1.0,0,0,0,1,1,0,2,1,1,3,2,1,1.0,0.4,0.6,0.7,0.5,0.1999999999999999,7.2,-2.4,9.6,5.7,-0.9,6.6000000000000005,0.4,0.4,0.0,-2.0,5.4,-7.4,125.4,113.2,12.200000000000005,118.2,115.6,2.6000000000000085,1.0,0.6,0.4,11.0,4.6,6.4,0.4,0.6,-0.1999999999999999,0.0,0.0,0,0.0,0,0,0,0,1,0.718834191706712,0.28116580829328797,71.8834191706712,HOME,MIN,0,ELITE,0,1,0.5501998968645881,0.44980010313541186,55.019989686458814,HOME,MIN,0,PASS,70-74.9,55-59.9
401810221,2025-12-08,2025-26,NOP,SAS,1280.3492557619209,1518.529341421946,-238.18008566002527,2.0,3.0,-1.0,0,0,0,1,1,0,2,2,0,3,3,0,0.0,0.6,-0.6,0.1,0.7,-0.6,-10.8,-2.8,-8.0,-7.3,2.2,-9.5,0.2,1.0,-0.8,-8.0,4.8,-12.8,115.2,121.6,-6.399999999999992,126.0,124.4,1.5999999999999943,0.2,0.6,-0.3999999999999999,-5.0,-1.6,-3.4,0.6,0.8,-0.2,0.0,0.0,0,0.0,0,0,0,0,0,0.3072909266569904,0.6927090733430096,69.27090733430096,AWAY,SAS,1,PREMIUM,0,1,0.5269903959811796,0.4730096040188204,52.699039598117956,HOME,NOP,0,PASS,65-69.9,50-54.9
401809833,2025-12-09,2025-26,ORL,MIA,1534.5120879761298,1497.7121228735982,36.79996510253159,2.0,3.0,-1.0,0,0,0,1,1,0,2,2,0,3,3,0,0.6,0.2,0.3999999999999999,0.7,0.6,0.0999999999999999,0.2,-2.6,2.8000000000000003,8.1,5.4,2.6999999999999997,0.4,0.4,0.0,-0.6,-0.4,-0.1999999999999999,111.0,119.8,-8.799999999999997,110.8,122.4,-11.600000000000009,0.8,0.4,0.4,8.8,5.4,3.4000000000000004,0.8,0.8,0.0,0.0,0.0,0,0.0,0,1,0,1,1,0.5625650722547827,0.4374349277452173,56.256507225478266,HOME,ORL,1,PASS,0,1,0.5530061889442435,0.44699381105575653,55.300618894424346,HOME,ORL,0,PASS,55-59.9,55-59.9
401809834,2025-12-09,2025-26,TOR,NYK,1457.1077103831667,1616.517732458207,-159.4100220750404,2.0,2.0,0.0,0,0,0,1,1,0,3,2,1,4,4,0,0.2,0.8,-0.6000000000000001,0.5,0.8,-0.3,-11.0,14.2,-25.2,-0.9,11.1,-12.0,0.2,1.0,-0.8,-5.6,15.4,-21.0,106.8,120.8,-14.0,117.8,106.6,11.200000000000005,0.4,0.6,-0.1999999999999999,-6.2,5.0,-11.2,0.2,0.4,-0.2,0.0,0.0,0,0.0,0,0,1,0,0,0.2295117377787762,0.7704882622212238,77.04882622212239,AWAY,NYK,1,ELITE,1,1,0.5012598092422904,0.4987401907577096,50.12598092422904,HOME,TOR,1,PASS,75-79.9,50-54.9
401809835,2025-12-10,2025-26,OKC,PHX,1830.12892676464,1529.443802206007,300.6851245586329,3.0,2.0,1.0,0,0,0,1,1,0,2,2,0,2,2,0,1.0,0.4,0.6,1.0,0.6,0.4,15.0,-4.2,19.2,17.3,-0.4,17.7,0.6,0.4,0.1999999999999999,7.2,1.6,5.6,126.6,112.4,14.199999999999989,111.6,116.6,-5.0,1.0,0.6,0.4,14.8,1.8,13.0,0.6,0.6,0.0,0.0,0.0,0,0.0,0,1,1,1,1,0.788302585306532,0.21169741469346803,78.8302585306532,HOME,OKC,1,ELITE,1,1,0.5772818942922793,0.4227181057077207,57.728189429227925,HOME,OKC,1,NORMAL,75-79.9,55-59.9
401809836,2025-12-10,2025-26,LAL,SAS,1624.4002746896972,1524.7494264711468,99.65084821855044,3.0,2.0,1.0,0,0,0,1,1,0,2,2,0,3,3,0,0.6,0.6,0.0,0.8,0.7,0.1,-3.8,-2.8,-1.0,4.8,1.2,3.6,0.4,1.0,-0.6,0.4,5.2,-4.8,116.2,120.8,-4.599999999999994,120.0,123.6,-3.5999999999999943,0.8,0.6,0.2,7.2,-3.6,10.8,0.4,1.0,-0.6,0.0,0.0,0,0.0,0,0,0,0,1,0.6625510291992279,0.3374489708007721,66.25510291992279,HOME,LAL,0,PREMIUM,0,1,0.5321435420306366,0.46785645796936337,53.214354203063664,HOME,LAL,0,PASS,65-69.9,50-54.9
401836748,2025-12-11,2025-26,NOP,POR,1274.1291707127202,1469.207635910891,-195.0784651981708,3.0,4.0,-1.0,0,0,0,1,0,1,2,1,1,3,2,1,0.0,0.2,-0.2,0.1,0.3,-0.1999999999999999,-9.8,-5.6,-4.200000000000001,-6.9,-5.3,-1.6000000000000003,0.0,0.4,-0.4,-10.2,-4.4,-5.799999999999999,122.4,113.4,9.0,132.2,119.0,13.199999999999989,0.2,0.4,-0.2,-2.2,-1.6,-0.6000000000000001,0.4,0.6,-0.1999999999999999,0.0,0.0,0,0.0,0,1,1,1,0,0.41463043591873083,0.5853695640812692,58.53695640812692,AWAY,POR,0,NORMAL,1,1,0.5370739350280185,0.4629260649719815,53.70739350280185,HOME,NOP,1,PASS,55-59.9,50-54.9
401836749,2025-12-11,2025-26,SAC,DEN,1435.4927636969103,1665.8155421381334,-230.32277844122316,3.0,4.0,-1.0,0,0,0,1,0,1,2,1,1,2,2,0,0.2,0.8,-0.6000000000000001,0.3,0.7,-0.3999999999999999,-7.6,6.6,-14.2,-9.5,4.5,-14.0,0.4,0.6,-0.1999999999999999,-2.0,1.2,-3.2,110.6,127.0,-16.400000000000006,118.2,120.4,-2.200000000000003,0.2,1.0,-0.8,-12.4,10.6,-23.0,0.4,0.6,-0.1999999999999999,0.0,0.0,0,0.0,0,0,0,0,0,0.2275843506066334,0.7724156493933666,77.24156493933666,AWAY,DEN,1,ELITE,0,1,0.5040754761200326,0.49592452387996744,50.407547612003256,HOME,SAC,0,PASS,75-79.9,50-54.9
401836746,2025-12-11,2025-26,HOU,LAC,1622.6762626287834,1483.028778397717,139.64748423106676,5.0,5.0,0.0,0,0,0,0,0,0,1,1,0,2,2,0,0.6,0.2,0.3999999999999999,0.7,0.2,0.4999999999999999,10.4,-2.0,12.4,8.9,-6.0,14.9,0.6,0.8,-0.2,0.4,2.6,-2.2,120.2,110.4,9.799999999999995,109.8,112.4,-2.6000000000000085,0.8,0.2,0.6000000000000001,14.0,-4.6,18.6,0.4,0.8,-0.4,0.0,0.0,0,0.0,0,1,0,1,1,0.755550389066055,0.24444961093394502,75.5550389066055,HOME,HOU,1,ELITE,0,1,0.5468391995631656,0.4531608004368344,54.683919956316565,HOME,HOU,0,PASS,75-79.9,50-54.9
401836747,2025-12-11,2025-26,MIL,BOS,1472.5339021736916,1651.279923604476,-178.74602143078437,5.0,4.0,1.0,0,0,0,0,0,0,1,1,0,2,3,-1,0.4,1.0,-0.6,0.2,0.8,-0.6000000000000001,-1.8,16.4,-18.2,-5.5,9.6,-15.1,0.4,0.8,-0.4,-4.0,5.4,-9.4,113.6,126.6,-13.0,115.4,110.2,5.200000000000003,0.4,0.8,-0.4,-3.8,13.0,-16.8,0.2,0.8,-0.6000000000000001,0.0,0.0,0,0.0,0,1,0,1,0,0.35218499915514134,0.6478150008448587,64.78150008448587,AWAY,BOS,0,STRONG,0,1,0.506279390850803,0.493720609149197,50.6279390850803,HOME,MIL,0,PASS,60-64.9,50-54.9
401836795,2025-12-12,2025-26,DAL,BKN,1451.3504535017792,1304.4486318926715,146.90182160910763,6.0,6.0,0.0,0,0,0,0,0,0,0,0,0,2,1,1,0.8,0.6,0.2,0.5,0.4,0.0999999999999999,3.2,2.2,1.0,-0.3,-3.0,2.7,0.2,0.6,-0.3999999999999999,-3.8,4.2,-8.0,119.2,111.4,7.799999999999997,116.0,109.2,6.799999999999997,0.6,0.6,0.0,3.6,2.8,0.8000000000000003,0.6,0.2,0.3999999999999999,0.0,0.0,0,0.0,0,1,0,1,1,0.7799954505642168,0.22000454943578318,77.99954505642168,HOME,DAL,1,ELITE,0,1,0.5561810240819995,0.44381897591800046,55.61810240819995,HOME,DAL,0,PASS,75-79.9,55-59.9
401836750,2025-12-12,2025-26,CHA,CHI,1283.1054652300736,1431.312740110304,-148.20727488023044,5.0,5.0,0.0,0,0,0,0,0,0,1,1,0,2,2,0,0.4,0.0,0.4,0.3,0.2,0.0999999999999999,-1.0,-12.8,11.8,-5.3,-11.8,6.500000000000001,0.2,0.4,-0.2,-6.6,-3.4,-3.2,108.4,104.0,4.400000000000006,109.4,116.8,-7.399999999999991,0.4,0.2,0.2,-7.6,-5.2,-2.3999999999999995,0.2,0.2,0.0,0.0,0.0,0,0.0,0,0,0,0,0,0.4746674123732501,0.5253325876267498,52.53325876267498,AWAY,CHI,1,PASS,0,1,0.5185443865134636,0.4814556134865364,51.854438651346356,HOME,CHA,0,PASS,50-54.9,50-54.9
401836751,2025-12-12,2025-26,DET,ATL,1593.133384428537,1494.8118592698786,98.32152515865846,6.0,6.0,0.0,0,0,0,0,0,0,0,0,0,2,2,0,0.8,0.4,0.4,0.7,0.5,0.1999999999999999,3.6,-0.4,4.0,3.8,-0.3,4.1,0.8,0.6,0.2,5.8,3.4,2.4,118.4,119.2,-0.7999999999999972,114.8,119.6,-4.799999999999997,0.8,0.6,0.2,6.2,4.0,2.2,0.8,0.4,0.4,0.0,0.0,0,0.0,0,1,1,1,1,0.7027312111354792,0.2972687888645208,70.27312111354792,HOME,DET,1,ELITE,1,1,0.5349355760755952,0.46506442392440484,53.49355760755952,HOME,DET,1,PASS,70-74.9,50-54.9
401836752,2025-12-12,2025-26,PHI,IND,1394.4099142630348,1522.312829358389,-127.90291509535427,5.0,4.0,1.0,0,0,0,0,0,0,1,1,0,2,2,0,0.6,0.6,0.0,0.5,0.5,0.0,4.6,-0.6,5.199999999999999,-1.6,2.1,-3.7,0.8,0.2,0.6000000000000001,8.0,-1.8,9.8,115.6,115.6,0.0,111.0,116.2,-5.200000000000003,0.4,0.2,0.2,-6.6,-9.6,3.0,0.6,0.2,0.3999999999999999,0.0,0.0,0,0.0,0,1,1,1,0,0.3457024372410233,0.6542975627589767,65.42975627589766,AWAY,IND,0,PREMIUM,1,1,0.5262215142167717,0.47377848578322834,52.62215142167717,HOME,PHI,1,PASS,65-69.9,50-54.9
401836753,2025-12-12,2025-26,WAS,CLE,1229.4337473963408,1587.8698046446805,-358.4360572483397,6.0,6.0,0.0,0,0,0,0,0,0,0,0,0,1,2,-1,0.2,0.4,-0.2,0.2,0.4,-0.2,-21.8,2.0,-23.8,-15.5,0.8,-16.3,0.0,0.4,-0.4,-5.6,1.6,-7.199999999999999,106.8,116.8,-10.0,128.6,114.8,13.799999999999995,0.4,0.4,0.0,-12.2,2.0,-14.2,0.2,0.6,-0.3999999999999999,0.0,0.0,0,0.0,0,0,0,0,0,0.27717479311597354,0.7228252068840264,72.28252068840264,AWAY,CLE,1,ELITE,0,1,0.517656720258751,0.482343279741249,51.7656720258751,HOME,WAS,0,PASS,70-74.9,50-54.9
401836754,2025-12-12,2025-26,MEM,UTA,1506.8438829724396,1326.1182158775514,180.7256670948882,5.0,5.0,0.0,0,0,0,0,0,0,1,1,0,2,2,0,0.8,0.4,0.4,0.7,0.3,0.3999999999999999,7.6,-14.2,21.8,7.0,-12.7,19.7,0.2,0.0,0.2,-0.4,-14.4,14.0,114.4,114.0,0.4000000000000057,106.8,128.2,-21.39999999999999,0.6,0.2,0.3999999999999999,9.8,-18.4,28.2,0.6,0.4,0.1999999999999999,0.0,0.0,0,0.0,0,0,0,0,1,0.81785338193842,0.18214661806157995,81.78533819384201,HOME,MEM,0,ELITE,0,1,0.5427934204084657,0.4572065795915343,54.279342040846565,HOME,MEM,0,PASS,80+,50-54.9
401836796,2025-12-12,2025-26,GSW,MIN,1571.7635923753642,1621.5481155969833,-49.78452322161911,5.0,4.0,1.0,0,0,0,0,0,0,1,1,0,2,2,0,0.6,0.8,-0.2,0.4,0.6,-0.1999999999999999,6.4,5.8,0.6000000000000005,1.9,3.0,-1.1,0.2,0.4,-0.2,-4.0,-2.4,-1.6,107.2,122.6,-15.399999999999991,100.8,116.8,-16.0,0.4,0.4,0.0,1.0,0.4,0.6,0.2,0.6,-0.3999999999999999,0.0,0.0,0,0.0,0,0,0,0,1,0.5522523131413455,0.4477476868586545,55.22523131413455,HOME,GSW,0,PASS,0,1,0.5441009408311055,0.4558990591688945,54.41009408311055,HOME,GSW,0,PASS,55-59.9,50-54.9
401809838,2025-12-13,2025-26,OKC,SAS,1831.940600258821,1539.9370238473134,292.00357641150754,3.0,3.0,0.0,0,0,0,1,1,0,1,2,-1,2,2,0,1.0,0.8,0.1999999999999999,1.0,0.7,0.3,24.0,2.4,21.6,20.5,1.5,19.0,0.8,1.0,-0.1999999999999999,10.2,6.0,4.199999999999999,129.6,124.8,4.799999999999997,105.6,122.4,-16.80000000000001,1.0,0.6,0.4,21.8,-1.6,23.4,0.6,1.0,-0.4,0.0,0.0,0,0.0,0,0,1,0,1,0.7959877304959369,0.20401226950406315,79.59877304959369,HOME,OKC,0,ELITE,1,1,0.5705181344857453,0.4294818655142547,57.05181344857453,HOME,OKC,1,NORMAL,75-79.9,55-59.9
401809837,2025-12-13,2025-26,ORL,NYK,1540.766271572963,1624.8242480625468,-84.05797648958378,4.0,4.0,0.0,0,0,0,0,0,0,1,1,0,2,2,0,0.6,0.8,-0.2,0.7,0.8,-0.1,1.4,13.0,-11.6,8.2,12.5,-4.300000000000001,0.4,0.8,-0.4,-2.8,10.8,-13.6,112.0,121.0,-9.0,110.6,108.0,2.5999999999999943,0.8,0.6,0.2,5.0,7.8,-2.8,0.6,0.4,0.1999999999999999,0.0,0.0,0,0.0,0,0,1,0,0,0.3992539187975208,0.6007460812024792,60.074608120247916,AWAY,NYK,1,STRONG,1,0,0.49121805972505195,0.508781940274948,50.87819402749481,AWAY,NYK,0,PASS,60-64.9,50-54.9
401836804,2025-12-14,2025-26,CHI,NOP,1439.934059337846,1286.7994222204245,153.1346371174218,2.0,3.0,-1.0,0,0,0,1,1,0,1,1,0,2,2,0,0.2,0.2,0.0,0.2,0.2,0.0,-11.8,-2.8,-9.0,-11.6,-4.3,-7.3,0.4,0.2,0.2,-2.8,-4.6,1.7999999999999998,109.6,126.8,-17.200000000000003,121.4,129.6,-8.199999999999989,0.2,0.0,0.2,-18.4,-12.8,-5.599999999999998,0.2,0.4,-0.2,0.0,0.0,0,0.0,0,0,1,0,1,0.5152333349191762,0.4847666650808238,51.523333491917626,HOME,CHI,0,PASS,1,1,0.5260093432564706,0.47399065674352936,52.60093432564707,HOME,CHI,1,PASS,50-54.9,50-54.9
401836802,2025-12-14,2025-26,POR,GSW,1456.537384403187,1560.3282553384834,-103.79087093529644,3.0,2.0,1.0,0,0,0,1,1,0,1,1,0,2,2,0,0.2,0.4,-0.2,0.3,0.4,-0.1,-8.6,3.4,-12.0,-7.5,2.0,-9.5,0.4,0.2,0.2,-5.2,-4.0,-1.2000000000000002,114.4,110.4,4.0,123.0,107.0,16.0,0.2,0.4,-0.2,-7.4,2.8,-10.2,0.4,0.2,0.2,0.0,0.0,0,0.0,0,1,1,1,0,0.3821167908887084,0.6178832091112916,61.788320911129155,AWAY,GSW,0,STRONG,1,1,0.5343600170982332,0.4656399829017668,53.43600170982332,HOME,POR,1,PASS,60-64.9,50-54.9
401839699,2025-12-14,2025-26,PHX,LAL,1527.6321287118258,1609.2126773135303,-81.58054860170478,4.0,4.0,0.0,0,0,0,0,0,0,1,1,0,2,2,0,0.4,0.4,0.0,0.5,0.7,-0.1999999999999999,-13.2,-8.8,-4.399999999999999,-7.0,1.1,-8.1,0.4,0.2,0.2,-1.4,-5.2,3.8,106.4,113.4,-7.0,119.6,122.2,-2.6000000000000085,0.4,0.8,-0.4,-6.4,2.4,-8.8,0.2,0.6,-0.3999999999999999,0.0,0.0,0,0.0,0,0,1,0,0,0.4147263729197489,0.5852736270802511,58.52736270802511,AWAY,LAL,1,NORMAL,1,1,0.5284352975703044,0.4715647024296956,52.84352975703044,HOME,PHX,1,PASS,55-59.9,50-54.9
401836801,2025-12-14,2025-26,MIN,SAC,1632.983452633864,1429.077201460844,203.9062511730201,2.0,3.0,-1.0,0,0,0,1,1,0,1,1,0,2,2,0,0.8,0.2,0.6000000000000001,0.6,0.3,0.3,4.6,-12.0,16.6,2.6,-11.2,13.8,0.6,0.4,0.1999999999999999,-1.2,-4.4,3.2,123.0,107.8,15.200000000000005,118.4,119.8,-1.3999999999999917,0.8,0.4,0.4,5.6,-5.0,10.6,0.2,0.2,0.0,0.0,0.0,0,0.0,0,1,0,1,1,0.8075749679179156,0.1924250320820844,80.75749679179157,HOME,MIN,1,ELITE,0,1,0.5568352123588561,0.44316478764114386,55.683521235885614,HOME,MIN,0,PASS,80+,55-59.9
401836799,2025-12-14,2025-26,CLE,CHA,1591.5552161053693,1274.4841460025316,317.07107010283767,2.0,2.0,0.0,0,0,0,1,1,0,1,1,0,1,2,-1,0.6,0.2,0.3999999999999999,0.5,0.3,0.2,3.2,-3.0,6.2,2.2,-4.7,6.9,0.6,0.2,0.3999999999999999,4.2,-4.8,9.0,119.8,110.0,9.799999999999995,116.6,113.0,3.5999999999999943,0.4,0.2,0.2,1.8,-3.0,4.8,0.4,0.2,0.2,0.0,0.0,0,0.0,0,0,0,0,1,0.7749173662404318,0.22508263375956816,77.49173662404318,HOME,CLE,0,ELITE,0,1,0.5655759061937442,0.4344240938062558,56.55759061937442,HOME,CLE,0,PASS,75-79.9,55-59.9
401836800,2025-12-14,2025-26,BKN,MIL,1300.5594154795874,1484.7623662541434,-184.20295077455603,2.0,3.0,-1.0,0,0,0,1,1,0,1,1,0,1,1,0,0.6,0.4,0.1999999999999999,0.4,0.3,0.1,4.0,-2.2,6.2,-2.4,-3.1,0.7000000000000002,0.8,0.2,0.6000000000000001,5.0,-5.8,10.8,113.8,113.6,0.2000000000000028,109.8,115.8,-6.0,0.4,0.0,0.4,-1.4,-7.8,6.4,0.6,0.6,0.0,0.0,0.0,0,0.0,0,1,1,1,0,0.4272524777106298,0.5727475222893702,57.27475222893702,AWAY,MIL,0,NORMAL,1,1,0.5091949833142013,0.4908050166857987,50.91949833142013,HOME,BKN,1,PASS,55-59.9,50-54.9
401836798,2025-12-14,2025-26,ATL,PHI,1489.9714366543064,1405.2113025093977,84.76013414490899,2.0,2.0,0.0,0,0,0,1,1,0,1,1,0,1,2,-1,0.2,0.8,-0.6000000000000001,0.5,0.6,-0.0999999999999999,-7.4,8.2,-15.6,-2.1,0.3,-2.4,0.6,0.8,-0.2,4.0,7.8,-3.8,113.8,111.8,2.0,121.2,103.6,17.60000000000001,0.4,0.6,-0.1999999999999999,-4.4,3.2,-7.6,0.6,0.6,0.0,0.0,0.0,0,0.0,0,1,1,1,1,0.5675511752906264,0.4324488247093736,56.75511752906264,HOME,ATL,1,PASS,1,1,0.5348369880306533,0.46516301196934673,53.48369880306533,HOME,ATL,1,PASS,55-59.9,50-54.9
401836797,2025-12-14,2025-26,IND,WAS,1511.5114411120264,1225.748335935652,285.76310517637444,2.0,2.0,0.0,0,0,0,1,1,0,1,1,0,2,1,1,0.4,0.2,0.2,0.4,0.2,0.2,-3.0,-16.0,13.0,0.2,-13.6,13.8,0.2,0.0,0.2,-2.2,-6.6,4.4,116.0,114.8,1.2000000000000028,119.0,130.8,-11.800000000000011,0.6,0.0,0.6,3.0,-18.8,21.8,0.4,0.2,0.2,0.0,0.0,0,0.0,0,0,1,0,1,0.8407195183082857,0.15928048169171427,84.07195183082857,HOME,IND,0,ELITE,1,1,0.5723944627560349,0.4276055372439651,57.23944627560349,HOME,IND,1,NORMAL,80+,55-59.9
401836803,2025-12-15,2025-26,BOS,DET,1639.051459524024,1597.9738070441092,41.07765247991483,4.0,3.0,1.0,0,0,0,0,1,-1,1,1,0,1,1,0,0.8,0.8,0.0,0.7,0.7,0.0,13.0,8.4,4.6,6.7,5.7,1.0,0.8,0.8,0.0,6.2,3.4,2.8000000000000003,123.4,119.2,4.200000000000003,110.4,110.8,-0.3999999999999915,0.8,0.6,0.2,6.2,2.8,3.4000000000000004,0.6,1.0,-0.4,0.0,0.0,0,0.0,0,0,1,0,1,0.6521601612480167,0.3478398387519833,65.21601612480167,HOME,BOS,0,PREMIUM,1,1,0.5197521047817262,0.4802478952182738,51.97521047817262,HOME,BOS,1,PASS,65-69.9,50-54.9
401836805,2025-12-15,2025-26,UTA,DAL,1342.8030343218068,1455.2396699148633,-112.43663559305652,3.0,3.0,0.0,0,0,0,1,1,0,1,1,0,1,1,0,0.6,0.8,-0.2,0.4,0.6,-0.1999999999999999,-7.8,4.0,-11.8,-10.9,0.7,-11.6,0.2,0.2,0.0,-11.6,-3.4,-8.2,119.8,120.2,-0.4000000000000057,127.6,116.2,11.399999999999991,0.4,0.4,0.0,-8.6,-4.2,-4.4,0.2,0.0,0.2,0.0,0.0,0,0.0,0,1,0,1,0,0.36806309186243924,0.6319369081375608,63.19369081375608,AWAY,DAL,0,STRONG,0,1,0.5294238230873466,0.4705761769126534,52.94238230873466,HOME,UTA,0,PASS,60-64.9,50-54.9
401836806,2025-12-15,2025-26,DEN,HOU,1672.2311043741995,1626.697978825453,45.53312554874674,4.0,4.0,0.0,0,0,0,0,0,0,1,1,0,1,1,0,0.8,0.6,0.2,0.7,0.7,0.0,9.2,5.2,3.999999999999999,6.9,8.7,-1.799999999999999,0.6,0.4,0.1999999999999999,3.2,-1.4,4.6,128.2,117.4,10.799999999999985,119.0,112.2,6.799999999999997,0.2,0.6,-0.3999999999999999,-0.8,6.6,-7.399999999999999,0.6,0.6,0.0,0.0,0.0,0,0.0,0,1,0,1,1,0.691799099642818,0.30820090035718195,69.1799099642818,HOME,DEN,1,PREMIUM,0,1,0.5474628252160271,0.45253717478397293,54.74628252160271,HOME,DEN,0,PASS,65-69.9,50-54.9
401836807,2025-12-15,2025-26,LAC,MEM,1479.0070622010471,1490.1590645281842,-11.152002327137096,4.0,3.0,1.0,0,0,0,0,1,-1,1,1,0,1,1,0,0.2,0.6,-0.3999999999999999,0.2,0.7,-0.4999999999999999,-1.6,5.8,-7.4,-3.4,7.6,-11.0,0.6,0.2,0.3999999999999999,2.0,0.8,1.2,111.0,117.2,-6.200000000000003,112.6,111.4,1.1999999999999886,0.0,0.8,-0.8,-7.4,3.4,-10.8,0.6,0.0,0.6,0.0,0.0,0,0.0,0,0,1,0,1,0.5681131332981136,0.43188686670188636,56.81131332981136,HOME,LAC,0,PASS,1,1,0.5040501588393433,0.49594984116065666,50.40501588393433,HOME,LAC,1,PASS,55-59.9,50-54.9
401839023,2025-12-15,2025-26,MIA,TOR,1491.457939276765,1448.801194778827,42.65674449793801,6.0,6.0,0.0,0,0,0,0,0,0,0,0,0,1,1,0,0.2,0.2,0.0,0.5,0.4,0.0999999999999999,-3.8,-9.8,6.000000000000001,3.1,-5.5,8.6,0.6,0.4,0.1999999999999999,4.8,-1.0,5.8,114.4,108.2,6.200000000000003,118.2,118.0,0.2000000000000028,0.6,0.6,0.0,1.0,2.2,-1.2000000000000002,0.6,0.6,0.0,0.0,0.0,0,0.0,0,0,0,0,1,0.6452110632754029,0.3547889367245971,64.5211063275403,HOME,MIA,0,STRONG,0,1,0.5476874986956581,0.45231250130434186,54.768749869565816,HOME,MIA,0,PASS,60-64.9,50-54.9
401809839,2025-12-16,2025-26,NYK,SAS,1635.282774632126,1558.0413112568,77.24146337532602,3.0,3.0,0.0,0,0,0,1,1,0,1,1,0,2,2,0,1.0,0.8,0.1999999999999999,0.9,0.7,0.2,16.6,1.4,15.2,14.9,0.8,14.1,0.6,0.8,-0.2,8.0,3.0,5.0,124.0,121.8,2.200000000000003,107.4,120.4,-13.0,1.0,0.8,0.1999999999999999,17.2,1.4,15.8,0.8,0.8,0.0,0.0,0.0,0,0.0,0,1,0,1,1,0.7281058202173618,0.2718941797826382,72.81058202173618,HOME,NYK,1,ELITE,0,1,0.577977259066197,0.422022740933803,57.7977259066197,HOME,NYK,0,NORMAL,70-74.9,55-59.9
401810222,2025-12-17,2025-26,CHI,CLE,1423.7121006198356,1573.2173679539144,-149.50526733407878,3.0,3.0,0.0,0,0,0,1,1,0,2,2,0,2,2,0,0.2,0.4,-0.2,0.2,0.4,-0.2,-12.8,-1.6,-11.2,-9.0,0.3,-9.3,0.6,0.4,0.1999999999999999,-1.2,1.0,-2.2,106.4,115.0,-8.599999999999994,119.2,116.6,2.6000000000000085,0.2,0.6,-0.3999999999999999,-13.2,3.2,-16.4,0.4,0.6,-0.1999999999999999,0.0,0.0,0,0.0,0,1,0,1,0,0.30705799914831977,0.6929420008516802,69.29420008516803,AWAY,CLE,0,PREMIUM,0,1,0.5156069757998709,0.4843930242001291,51.56069757998709,HOME,CHI,0,PASS,65-69.9,50-54.9
401810223,2025-12-17,2025-26,MIN,MEM,1635.9458473513157,1502.661991941859,133.28385540945646,3.0,2.0,1.0,0,0,0,1,1,0,2,2,0,2,2,0,0.8,0.6,0.2,0.7,0.7,0.0,6.0,7.8,-1.7999999999999998,4.1,5.3,-1.2000000000000002,0.4,0.2,0.2,-3.8,1.2,-5.0,116.6,118.4,-1.8000000000000114,110.6,110.6,0.0,0.8,0.8,0.0,6.2,5.8,0.4000000000000003,0.0,0.0,0.0,0.0,0.0,0,0.0,0,0,0,0,1,0.6644580324807525,0.3355419675192475,66.44580324807525,HOME,MIN,0,PREMIUM,0,1,0.5306450978000423,0.4693549021999577,53.06450978000423,HOME,MIN,0,PASS,65-69.9,50-54.9
401810235,2025-12-18,2025-26,POR,SAC,1466.6464901098566,1426.1148067433926,40.531683366464,4.0,4.0,0.0,0,0,0,0,0,0,1,1,0,2,2,0,0.4,0.2,0.2,0.3,0.3,0.0,-7.0,-13.2,6.199999999999999,-7.4,-8.5,1.0999999999999996,0.4,0.4,0.0,-5.0,-3.8,-1.2000000000000002,118.0,107.0,11.0,125.0,120.2,4.799999999999997,0.2,0.2,0.0,-6.8,-8.8,2.000000000000001,0.6,0.4,0.1999999999999999,0.0,0.0,0,0.0,0,1,0,1,1,0.6583115784234477,0.3416884215765523,65.83115784234477,HOME,POR,1,PREMIUM,0,1,0.5462257095168283,0.45377429048317175,54.622570951682825,HOME,POR,0,PASS,65-69.9,50-54.9
401810234,2025-12-18,2025-26,UTA,LAL,1353.160836661774,1619.742335608358,-266.5814989465839,3.0,4.0,-1.0,0,0,0,1,0,1,1,1,0,2,1,1,0.6,0.6,0.0,0.5,0.7,-0.1999999999999999,-8.0,-5.0,-3.0,-7.0,-0.1,-6.9,0.2,0.2,0.0,-12.6,-6.2,-6.4,121.2,115.0,6.200000000000003,129.2,120.0,9.199999999999989,0.6,0.8,-0.2,-6.8,-2.0,-4.8,0.2,0.4,-0.2,0.0,0.0,0,0.0,0,0,1,0,0,0.34875574632386686,0.6512442536761331,65.12442536761331,AWAY,LAL,1,PREMIUM,1,1,0.5361051007816695,0.4638948992183305,53.61051007816695,HOME,UTA,1,PASS,65-69.9,50-54.9
401810233,2025-12-18,2025-26,PHX,GSW,1517.1024704169984,1550.2191496318137,-33.11667921481535,4.0,4.0,0.0,0,0,0,0,0,0,1,1,0,1,2,-1,0.4,0.4,0.0,0.4,0.4,0.0,-10.0,4.8,-14.8,-7.3,2.9,-10.2,0.6,0.2,0.3999999999999999,0.6,-3.4,4.0,106.8,114.2,-7.400000000000006,116.8,109.4,7.399999999999991,0.4,0.4,0.0,-6.4,3.4,-9.8,0.4,0.2,0.2,0.0,0.0,0,0.0,0,1,0,1,0,0.4237071964895556,0.5762928035104444,57.62928035104444,AWAY,GSW,0,NORMAL,0,1,0.5236283200171192,0.47637167998288077,52.36283200171192,HOME,PHX,0,PASS,55-59.9,50-54.9
401810232,2025-12-18,2025-26,DEN,ORL,1678.2712564512103,1530.3077450033836,147.9635114478267,3.0,5.0,-2.0,0,0,0,1,0,1,1,1,0,2,1,1,1.0,0.4,0.6,0.7,0.6,0.0999999999999999,11.8,-2.0,13.8,6.9,4.2,2.7,0.4,0.4,0.0,-0.8,-2.8,2.0,129.6,111.0,18.599999999999994,117.8,113.0,4.799999999999997,0.2,0.4,-0.2,-3.6,5.0,-8.6,0.4,0.2,0.2,0.0,0.0,0,0.0,0,1,0,1,1,0.7288174596999046,0.27118254030009536,72.88174596999046,HOME,DEN,1,ELITE,0,1,0.5624460528446569,0.4375539471553431,56.244605284465685,HOME,DEN,0,PASS,70-74.9,55-59.9
401810231,2025-12-18,2025-26,DAL,DET,1444.881867574896,1611.8249785903631,-166.94311101546714,3.0,3.0,0.0,0,0,0,1,1,0,1,1,0,2,2,0,0.6,0.8,-0.2,0.5,0.7,-0.1999999999999999,0.6,9.6,-9.0,-0.3,5.1,-5.4,0.4,0.8,-0.4,0.6,2.2,-1.6,120.6,121.8,-1.2000000000000028,120.0,112.2,7.799999999999997,0.8,0.6,0.2,5.6,1.6,4.0,0.4,0.8,-0.4,0.0,0.0,0,0.0,0,1,1,1,0,0.38461988227016675,0.6153801177298333,61.538011772983324,AWAY,DET,0,STRONG,1,1,0.5030940607045249,0.4969059392954751,50.30940607045249,HOME,DAL,1,PASS,60-64.9,50-54.9
401810230,2025-12-18,2025-26,NOP,HOU,1303.0213809384347,1620.6578267484424,-317.6364458100077,4.0,3.0,1.0,0,0,0,0,1,-1,1,1,0,2,2,0,0.4,0.6,-0.1999999999999999,0.3,0.6,-0.3,0.6,6.2,-5.6000000000000005,-1.6,7.4,-9.0,0.2,0.4,-0.2,-4.4,-0.4,-4.0,121.2,117.4,3.799999999999997,120.6,111.2,9.399999999999991,0.2,0.4,-0.2,-0.2,1.6,-1.8,0.4,0.6,-0.1999999999999999,0.0,0.0,0,0.0,0,1,0,1,0,0.2804313684240848,0.7195686315759152,71.95686315759153,AWAY,HOU,0,ELITE,0,1,0.5196555477729086,0.48034445222709143,51.965554777290855,HOME,NOP,0,PASS,70-74.9,50-54.9
401810225,2025-12-18,2025-26,SAS,WAS,1552.741869094446,1243.790074699187,308.95179439525896,2.0,4.0,-2.0,0,0,0,1,0,1,2,1,1,2,2,0,0.6,0.2,0.3999999999999999,0.7,0.3,0.3999999999999999,-1.2,-12.8,11.6,0.6,-10.6,11.2,0.8,0.0,0.8,3.0,-5.6,8.6,121.6,110.6,11.0,122.8,123.4,-0.6000000000000085,0.8,0.2,0.6000000000000001,7.6,-12.8,20.4,0.6,0.2,0.3999999999999999,0.0,0.0,0,0.0,0,1,1,1,1,0.8251411392313093,0.17485886076869073,82.51411392313092,HOME,SAS,1,ELITE,1,1,0.566172622533867,0.433827377466133,56.6172622533867,HOME,SAS,1,PASS,80+,55-59.9
401810228,2025-12-18,2025-26,BKN,MIA,1312.9366099787576,1477.5681266257177,-164.63151664695988,4.0,3.0,1.0,0,0,0,0,1,-1,1,1,0,2,1,1,0.6,0.0,0.6,0.4,0.4,0.0,10.4,-9.2,19.6,1.3,-1.5,2.8,1.0,0.4,0.6,7.6,2.4,5.199999999999999,116.0,105.6,10.400000000000006,105.6,114.8,-9.200000000000005,0.6,0.4,0.1999999999999999,10.2,5.2,4.999999999999999,0.6,0.8,-0.2,0.0,0.0,0,0.0,0,0,0,0,0,0.3711051137191944,0.6288948862808056,62.88948862808056,AWAY,MIA,1,STRONG,0,1,0.5236422432821273,0.4763577567178727,52.36422432821273,HOME,BKN,0,PASS,60-64.9,50-54.9
401810227,2025-12-18,2025-26,IND,NYK,1493.4697023484914,1640.5822167944802,-147.11251444598884,4.0,2.0,2.0,0,0,0,0,1,-1,1,2,-1,2,2,0,0.4,1.0,-0.6,0.4,0.9,-0.5,-3.6,15.8,-19.4,-0.6,14.7,-15.3,0.4,0.4,0.0,0.4,4.6,-4.199999999999999,110.0,125.0,-15.0,113.6,109.2,4.399999999999992,0.4,0.8,-0.4,-7.4,12.6,-20.0,0.4,0.4,0.0,0.0,0.0,0,0.0,0,0,1,0,0,0.47002031779431863,0.5299796822056814,52.99796822056814,AWAY,NYK,1,PASS,1,1,0.5067950142080588,0.49320498579194116,50.679501420805884,HOME,IND,1,PASS,50-54.9,50-54.9
401810226,2025-12-18,2025-26,CHA,ATL,1292.8219941539865,1495.1040126799094,-202.2820185259229,4.0,4.0,0.0,0,0,0,0,0,0,1,1,0,2,2,0,0.4,0.4,0.0,0.4,0.5,-0.0999999999999999,1.2,-6.6,7.8,-2.4,-3.5,1.1,0.2,0.6,-0.3999999999999999,-4.2,5.6,-9.8,113.2,118.2,-5.0,112.0,124.8,-12.799999999999995,0.4,0.4,0.0,-5.2,-4.8,-0.4000000000000003,0.2,0.4,-0.2,0.0,0.0,0,0.0,0,1,1,1,0,0.37601576298398387,0.6239842370160161,62.398423701601615,AWAY,ATL,0,STRONG,1,1,0.5089040278990986,0.4910959721009014,50.890402789909864,HOME,CHA,1,PASS,60-64.9,50-54.9
401810224,2025-12-18,2025-26,OKC,LAC,1813.8363128493345,1466.5041347873723,347.33217806196194,5.0,3.0,2.0,0,0,0,0,1,-1,1,1,0,1,2,-1,0.8,0.2,0.6000000000000001,0.9,0.1,0.8,22.0,-1.8,23.8,18.9,-6.7,25.6,0.8,0.8,0.0,11.4,4.6,6.800000000000001,126.8,107.0,19.8,104.8,108.8,-4.0,0.8,0.2,0.6000000000000001,16.0,-1.6,17.6,0.6,0.6,0.0,0.0,0.0,0,0.0,0,1,0,1,1,0.8284731716544296,0.17152682834557043,82.84731716544296,HOME,OKC,1,ELITE,0,1,0.5472269017877371,0.45277309821226286,54.72269017877372,HOME,OKC,0,PASS,80+,50-54.9
401810229,2025-12-18,2025-26,MIL,TOR,1472.3851717549733,1462.6910074298746,9.694164325098654,4.0,3.0,1.0,0,0,0,0,1,-1,1,1,0,2,1,1,0.4,0.2,0.2,0.3,0.4,-0.1,-10.6,-8.4,-2.1999999999999997,-6.3,-5.5,-0.7999999999999998,0.0,0.6,-0.6,-9.4,-0.4,-9.0,104.8,105.2,-0.4000000000000057,115.4,113.6,1.8000000000000114,0.6,0.6,0.0,1.8,1.6,0.1999999999999999,0.2,0.8,-0.6000000000000001,0.0,0.0,0,0.0,0,0,0,0,1,0.6247343517376776,0.37526564826232245,62.473435173767754,HOME,MIL,0,STRONG,0,1,0.5355876364023113,0.46441236359768867,53.558763640231135,HOME,MIL,0,PASS,60-64.9,50-54.9
401810240,2025-12-19,2025-26,MIN,OKC,1620.0865519599924,1815.251541999776,-195.1649900397831,2.0,1.0,1.0,0,1,-1,1,1,0,2,1,1,3,2,1,0.6,0.8,-0.2,0.7,0.9,-0.2,3.0,23.8,-20.8,4.0,17.8,-13.8,0.2,0.6,-0.3999999999999999,-5.2,9.0,-14.2,113.6,126.4,-12.800000000000011,110.6,102.6,8.0,0.6,1.0,-0.4,4.2,19.8,-15.6,0.0,0.8,-0.8,0.0,0.0,0,0.0,0,1,0,1,0,0.4389929787834116,0.5610070212165884,56.10070212165884,AWAY,OKC,0,PASS,0,1,0.516156990088893,0.48384300991110696,51.6156990088893,HOME,MIN,0,PASS,55-59.9,50-54.9
401810239,2025-12-19,2025-26,CLE,CHI,1561.8020571022612,1435.1274114714888,126.67464563077236,2.0,2.0,0.0,0,0,0,1,1,0,2,2,0,3,3,0,0.4,0.4,0.0,0.3,0.2,0.0999999999999999,-2.4,-7.6,5.199999999999999,-2.8,-7.5,4.7,0.6,0.6,0.0,1.8,-0.4,2.2,115.2,111.2,4.0,117.6,118.8,-1.2000000000000028,0.2,0.2,0.0,-2.8,-4.8,2.0,0.2,0.4,-0.2,0.0,0.0,0,0.0,0,0,0,0,1,0.7172636635053229,0.2827363364946771,71.72636635053229,HOME,CLE,0,ELITE,0,1,0.5516331194185436,0.44836688058145635,55.16331194185437,HOME,CLE,0,PASS,70-74.9,55-59.9
401810238,2025-12-19,2025-26,ATL,SAS,1482.2422971745025,1554.4766527970444,-72.23435562254213,1.0,1.0,0.0,1,1,0,1,2,-1,2,2,0,3,3,0,0.4,0.8,-0.4,0.4,0.7,-0.2999999999999999,-3.4,6.4,-9.8,-4.5,1.8,-6.3,0.6,0.8,-0.2,5.8,3.4,2.4,125.0,122.0,3.0,128.4,115.6,12.800000000000011,0.6,0.6,0.0,-2.2,-1.2,-1.0000000000000002,0.8,0.8,0.0,0.0,0.0,0,0.0,0,0,0,0,1,0.5124826804251692,0.4875173195748308,51.24826804251692,HOME,ATL,0,PASS,0,1,0.5460720789903086,0.45392792100969137,54.60720789903086,HOME,ATL,0,PASS,50-54.9,50-54.9
401810237,2025-12-19,2025-26,NYK,PHI,1649.2344601671964,1400.0787264837943,249.15573368340188,1.0,5.0,-4.0,1,0,1,2,0,2,2,1,1,3,2,1,1.0,0.6,0.4,0.9,0.5,0.4,9.2,3.8,5.4,12.0,-0.9,12.9,0.2,0.6,-0.3999999999999999,-3.2,5.2,-8.4,118.6,111.0,7.599999999999994,109.4,107.2,2.200000000000003,1.0,0.6,0.4,17.6,4.8,12.8,0.8,0.6,0.2,0.0,0.0,0,0.0,0,0,0,0,1,0.83850707930788,0.16149292069211996,83.850707930788,HOME,NYK,0,ELITE,0,1,0.5469253607934135,0.4530746392065865,54.692536079341345,HOME,NYK,0,PASS,80+,50-54.9
401810236,2025-12-19,2025-26,BOS,MIA,1625.20028797777,1485.7290471044255,139.47124087334464,4.0,1.0,3.0,0,1,-1,0,1,-1,1,2,-1,1,2,-1,0.6,0.2,0.3999999999999999,0.7,0.4,0.2999999999999999,10.4,-5.0,15.4,6.8,-1.4,8.2,1.0,0.4,0.6,10.0,2.0,8.0,119.8,105.2,14.599999999999994,109.4,110.2,-0.7999999999999972,0.8,0.4,0.4,6.4,0.2,6.2,0.6,0.8,-0.2,0.0,0.0,0,0.0,0,1,1,1,1,0.791274182040829,0.208725817959171,79.1274182040829,HOME,BOS,1,ELITE,1,1,0.5217124545159955,0.47828754548400454,52.171245451599546,HOME,BOS,1,PASS,75-79.9,50-54.9
401810241,2025-12-20,2025-26,DEN,HOU,1682.141361549168,1605.1020875673084,77.03927398185942,2.0,2.0,0.0,0,0,0,1,1,0,2,2,0,2,2,0,1.0,0.4,0.6,0.8,0.6,0.2,11.0,0.0,11.0,8.5,7.2,1.2999999999999998,0.2,0.4,-0.2,-3.2,1.0,-4.2,127.8,118.8,9.0,116.8,118.8,-2.0,0.4,0.2,0.2,-0.8,-0.2,-0.6000000000000001,0.4,0.8,-0.4,0.0,0.0,0,0.0,0,0,1,0,1,0.6106515613254033,0.3893484386745967,61.06515613254033,HOME,DEN,0,STRONG,1,1,0.5497711787453758,0.45022882125462416,54.97711787453758,HOME,DEN,1,PASS,60-64.9,50-54.9
401810242,2025-12-20,2025-26,PHI,DAL,1417.7153826309298,1456.7851503349734,-39.06976770404367,1.0,2.0,-1.0,1,0,1,1,1,0,1,2,-1,2,2,0,0.6,0.6,0.0,0.6,0.6,0.0,5.4,-1.0,6.4,1.0,0.5,0.5,0.4,0.6,-0.1999999999999999,1.2,2.6,-1.4,114.4,120.2,-5.799999999999997,109.0,121.2,-12.200000000000005,0.6,0.4,0.1999999999999999,3.6,-4.8,8.4,0.8,0.2,0.6000000000000001,0.0,0.0,0,0.0,0,1,1,1,0,0.416581582458351,0.583418417541649,58.3418417541649,AWAY,DAL,0,NORMAL,1,1,0.5118640582887467,0.4881359417112533,51.18640582887467,HOME,PHI,1,PASS,55-59.9,50-54.9
401810243,2025-12-20,2025-26,TOR,BOS,1475.7473725531474,1629.225264880853,-153.4778923277056,2.0,1.0,1.0,0,1,-1,1,1,0,2,2,0,2,2,0,0.4,0.6,-0.1999999999999999,0.4,0.7,-0.2999999999999999,-6.6,4.0,-10.6,-6.0,7.2,-13.2,0.8,1.0,-0.1999999999999999,1.8,9.0,-7.2,103.4,116.4,-13.0,110.0,112.4,-2.4000000000000057,0.2,0.6,-0.3999999999999999,-9.8,7.2,-17.0,0.4,1.0,-0.6,0.0,0.0,0,0.0,0,0,0,0,0,0.2769649115817021,0.7230350884182979,72.3035088418298,AWAY,BOS,1,ELITE,0,0,0.49712019637415894,0.5028798036258411,50.28798036258411,AWAY,BOS,1,PASS,70-74.9,50-54.9
401810244,2025-12-20,2025-26,NOP,IND,1318.5771201195687,1484.8174589757753,-166.24033885620656,2.0,2.0,0.0,0,0,0,1,1,0,1,1,0,2,2,0,0.6,0.4,0.1999999999999999,0.3,0.4,-0.1,3.4,-0.8,4.2,-2.4,-0.2,-2.2,0.2,0.6,-0.3999999999999999,-5.2,3.6,-8.8,124.6,108.6,16.0,121.2,109.4,11.799999999999995,0.4,0.2,0.2,1.8,-4.6,6.4,0.2,0.2,0.0,0.0,0.0,0,0.0,0,1,1,1,0,0.28943100579238457,0.7105689942076154,71.05689942076154,AWAY,IND,0,ELITE,1,1,0.5427837047466448,0.45721629525335516,54.278370474664484,HOME,NOP,1,PASS,70-74.9,50-54.9
401810245,2025-12-20,2025-26,DET,CHA,1599.9216958302857,1305.6837096593936,294.2379861708921,2.0,2.0,0.0,0,0,0,1,1,0,2,1,1,2,2,0,0.8,0.6,0.2,0.6,0.5,0.0999999999999999,10.0,5.6,4.4,4.4,-1.4,5.800000000000001,0.6,0.4,0.1999999999999999,-0.6,-0.2,-0.3999999999999999,122.8,119.0,3.799999999999997,112.8,113.4,-0.6000000000000085,0.8,0.4,0.4,8.6,0.4,8.2,0.8,0.4,0.4,0.0,0.0,0,0.0,0,1,1,1,1,0.8277497132291178,0.17225028677088217,82.77497132291178,HOME,DET,1,ELITE,1,1,0.581528024782737,0.418471975217263,58.1528024782737,HOME,DET,1,NORMAL,80+,55-59.9
401810246,2025-12-20,2025-26,MEM,WAS,1518.521287333182,1242.0552909965886,276.46599633659343,3.0,2.0,1.0,0,0,0,1,1,0,2,1,1,2,2,0,0.8,0.2,0.6000000000000001,0.7,0.3,0.3999999999999999,10.4,-14.0,24.4,5.3,-10.1,15.4,0.4,0.0,0.4,2.4,-6.4,8.8,117.8,109.0,8.799999999999997,107.4,123.0,-15.599999999999994,0.6,0.2,0.3999999999999999,11.8,-11.8,23.6,0.4,0.2,0.2,0.0,0.0,0,0.0,0,0,1,0,1,0.8372078227688046,0.16279217723119543,83.72078227688046,HOME,MEM,0,ELITE,1,1,0.5640413356656925,0.4359586643343075,56.40413356656925,HOME,MEM,1,PASS,80+,55-59.9
401810247,2025-12-20,2025-26,GSW,PHX,1542.120773775811,1525.2008462730012,16.919927502809742,2.0,2.0,0.0,0,0,0,1,1,0,1,1,0,2,2,0,0.4,0.4,0.0,0.4,0.4,0.0,4.8,-13.2,18.0,3.2,-8.1,11.3,0.4,0.6,-0.1999999999999999,1.2,0.0,1.2,114.2,101.6,12.600000000000009,109.4,114.8,-5.399999999999992,0.4,0.4,0.0,0.4,-10.4,10.8,0.2,0.4,-0.2,0.0,0.0,0,0.0,0,1,0,1,1,0.6377325565863378,0.36226744341366224,63.77325565863378,HOME,GSW,1,STRONG,0,1,0.5375679732704298,0.4624320267295702,53.75679732704298,HOME,GSW,0,PASS,60-64.9,50-54.9
401810248,2025-12-20,2025-26,UTA,ORL,1347.6189478060726,1526.437639905426,-178.81869209935348,2.0,2.0,0.0,0,0,0,1,1,0,2,1,1,2,2,0,0.4,0.4,0.0,0.5,0.5,0.0,-12.2,-3.8,-8.399999999999999,-7.6,1.9,-9.5,0.4,0.6,-0.1999999999999999,-9.0,-1.0,-8.0,123.6,111.6,12.0,135.8,115.4,20.40000000000001,0.4,0.4,0.0,-10.2,3.6,-13.8,0.2,0.2,0.0,0.0,0.0,0,0.0,0,0,1,0,0,0.2956380900742564,0.7043619099257437,70.43619099257437,AWAY,ORL,1,ELITE,1,1,0.5544737023296896,0.4455262976703104,55.447370232968964,HOME,UTA,1,PASS,70-74.9,55-59.9
401810249,2025-12-20,2025-26,SAC,POR,1419.9525866051015,1472.8087102481477,-52.8561236430462,2.0,2.0,0.0,0,0,0,1,1,0,1,1,0,2,2,0,0.2,0.4,-0.2,0.2,0.4,-0.2,-8.2,-9.2,1.0,-9.1,-4.6,-4.5,0.6,0.2,0.3999999999999999,-2.6,-6.4,3.8,114.6,120.4,-5.800000000000011,122.8,129.6,-6.799999999999997,0.2,0.2,0.0,-15.8,-8.6,-7.200000000000001,0.2,0.4,-0.2,0.0,0.0,0,0.0,0,0,0,0,0,0.3903834320879288,0.6096165679120712,60.96165679120712,AWAY,POR,1,STRONG,0,1,0.5217542718285859,0.4782457281714141,52.17542718285859,HOME,SAC,0,PASS,60-64.9,50-54.9
401810250,2025-12-20,2025-26,LAC,LAL,1465.088905636931,1625.2842244640594,-160.1953188271284,2.0,2.0,0.0,0,0,0,1,1,0,2,1,1,2,2,0,0.0,0.6,-0.6,0.1,0.7,-0.6,-10.6,-4.0,-6.6,-7.3,0.5,-7.8,0.8,0.0,0.8,4.6,-9.0,13.6,104.2,119.0,-14.799999999999995,114.8,123.0,-8.200000000000003,0.0,0.8,-0.8,-8.8,-0.8,-8.0,0.8,0.2,0.6000000000000001,0.0,0.0,0,0.0,0,1,1,1,0,0.2733950377675014,0.7266049622324986,72.66049622324987,AWAY,LAL,0,ELITE,1,0,0.49903378444351465,0.5009662155564854,50.09662155564853,AWAY,LAL,0,PASS,70-74.9,50-54.9
401810256,2025-12-21,2025-26,SAC,HOU,1408.6039437167444,1619.7981105143967,-211.19416679765231,1.0,1.0,0.0,1,1,0,2,2,0,2,2,0,3,3,0,0.0,0.4,-0.4,0.1,0.6,-0.5,-12.4,-1.0,-11.4,-10.1,6.4,-16.5,0.4,0.4,0.0,-3.6,1.8,-5.4,107.8,118.4,-10.600000000000009,120.2,119.4,0.7999999999999972,0.2,0.2,0.0,-10.2,-3.0,-7.199999999999999,0.2,0.6,-0.3999999999999999,0.0,0.0,0,0.0,0,1,0,1,0,0.28159711112845,0.71840288887155,71.840288887155,AWAY,HOU,0,ELITE,0,1,0.5032057652996416,0.49679423470035844,50.32057652996416,HOME,SAC,0,PASS,70-74.9,50-54.9
401810255,2025-12-21,2025-26,MIN,MIL,1632.7591161284745,1459.3288066317004,173.43030949677382,2.0,3.0,-1.0,0,0,0,1,1,0,2,1,1,3,2,1,0.6,0.2,0.3999999999999999,0.8,0.3,0.5,3.4,-12.6,16.0,5.3,-5.7,11.0,0.2,0.0,0.2,-4.8,-8.8,4.000000000000001,114.2,103.2,11.0,110.8,115.8,-5.0,0.6,0.0,0.6,2.6,-14.4,17.0,0.0,0.4,-0.4,0.0,0.0,0,0.0,0,1,0,1,1,0.7573723406131732,0.24262765938682684,75.73723406131731,HOME,MIN,1,ELITE,0,1,0.5444337028454896,0.45556629715451036,54.44337028454896,HOME,MIN,0,PASS,75-79.9,50-54.9
401810254,2025-12-21,2025-26,WAS,SAS,1260.0004326022645,1565.2741153244892,-305.273682722225,1.0,2.0,-1.0,1,0,1,2,2,0,2,3,-1,3,3,0,0.4,0.8,-0.4,0.4,0.7,-0.2999999999999999,-3.4,11.4,-14.8,-9.2,4.3,-13.5,0.0,0.8,-0.8,-6.2,4.0,-10.2,114.8,120.2,-5.400000000000006,118.2,108.8,9.400000000000006,0.4,0.8,-0.4,-8.4,7.0,-15.4,0.2,0.8,-0.6000000000000001,0.0,0.0,0,0.0,0,0,1,0,0,0.209507731105042,0.790492268894958,79.0492268894958,AWAY,SAS,1,ELITE,1,0,0.4911738876689926,0.5088261123310074,50.88261123310074,AWAY,SAS,0,PASS,75-79.9,50-54.9
401810251,2025-12-21,2025-26,ATL,CHI,1471.4448346470574,1450.860393805222,20.58444084183543,2.0,2.0,0.0,0,0,0,2,1,1,2,2,0,3,3,0,0.4,0.6,-0.1999999999999999,0.4,0.3,0.1,-8.8,-2.4,-6.4,-5.4,-5.1,-0.3000000000000007,0.4,0.4,0.0,-0.4,-1.0,0.6,118.0,117.4,0.5999999999999943,126.8,119.8,7.0,0.4,0.4,0.0,-8.4,0.0,-8.4,0.6,0.4,0.1999999999999999,0.0,0.0,0,0.0,0,0,0,0,1,0.6273638703335165,0.3726361296664835,62.73638703335165,HOME,ATL,0,STRONG,0,1,0.5384249592746161,0.4615750407253839,53.842495927461606,HOME,ATL,0,PASS,60-64.9,50-54.9
401810252,2025-12-21,2025-26,BKN,TOR,1304.7756895000496,1467.2745484619793,-162.49885896192973,3.0,1.0,2.0,0,1,-1,1,2,-1,1,2,-1,2,3,-1,0.4,0.4,0.0,0.4,0.3,0.1,6.2,-4.8,11.0,1.2,-7.8,9.0,0.8,0.6,0.2,6.0,-1.8,7.8,112.4,105.4,7.0,106.2,110.2,-4.0,0.6,0.6,0.0,10.4,-0.8,11.2,0.6,0.8,-0.2,0.0,0.0,0,0.0,0,1,1,1,1,0.5385471877872147,0.46145281221278533,53.85471877872147,HOME,BKN,1,PASS,1,1,0.5191503649887546,0.48084963501124545,51.91503649887545,HOME,BKN,1,PASS,50-54.9,50-54.9
401810253,2025-12-21,2025-26,NYK,MIA,1631.5978040200612,1481.7040702013426,149.8937338187186,2.0,2.0,0.0,0,0,0,2,2,0,3,2,1,3,3,0,0.8,0.2,0.6000000000000001,0.8,0.3,0.5,6.2,-7.4,13.6,10.2,-3.1,13.3,0.0,0.4,-0.4,-4.0,2.2,-6.2,118.8,107.4,11.399999999999991,112.6,114.8,-2.200000000000003,0.8,0.2,0.6000000000000001,11.4,-4.4,15.8,0.6,0.6,0.0,0.0,0.0,0,0.0,0,1,0,1,1,0.763465479349765,0.23653452065023495,76.3465479349765,HOME,NYK,1,ELITE,0,1,0.555478475974339,0.44452152402566103,55.5478475974339,HOME,NYK,0,PASS,75-79.9,55-59.9
401810262,2025-12-22,2025-26,GSW,ORL,1548.8770798575424,1534.2071881591096,14.66989169843282,2.0,2.0,0.0,0,0,0,1,1,0,2,2,0,2,2,0,0.4,0.4,0.0,0.4,0.6,-0.1999999999999999,4.4,-3.8,8.2,1.8,2.9,-1.1,0.4,0.4,0.0,0.0,-1.8,1.8,118.2,116.0,2.200000000000003,113.8,119.8,-6.0,0.4,0.6,-0.1999999999999999,-2.4,5.6,-8.0,0.2,0.2,0.0,0.0,0.0,0,0.0,0,1,0,1,1,0.6358007533909801,0.3641992466090199,63.58007533909801,HOME,GSW,1,STRONG,0,1,0.546755890098464,0.45324410990153596,54.675589009846405,HOME,GSW,0,PASS,60-64.9,50-54.9
401810257,2025-12-22,2025-26,CLE,CHA,1546.069074768528,1303.809954363842,242.259120404686,3.0,2.0,1.0,0,0,0,1,1,0,2,2,0,2,2,0,0.2,0.4,-0.2,0.3,0.5,-0.2,-7.2,-4.6,-2.6000000000000005,-2.8,-1.2,-1.6,0.6,0.4,0.1999999999999999,2.8,-0.2,3.0,114.2,114.0,0.2000000000000028,121.4,118.6,2.800000000000012,0.2,0.4,-0.2,-4.6,-4.2,-0.3999999999999994,0.2,0.4,-0.2,0.0,0.0,0,0.0,0,1,0,1,1,0.6690976954019225,0.33090230459807746,66.90976954019226,HOME,CLE,1,PREMIUM,0,1,0.5673462901701661,0.43265370982983387,56.734629017016616,HOME,CLE,0,PASS,65-69.9,55-59.9
401810258,2025-12-22,2025-26,BOS,IND,1637.6980889720212,1472.933678370954,164.7644106010673,2.0,2.0,0.0,0,0,0,2,1,1,2,2,0,3,2,1,0.6,0.2,0.3999999999999999,0.7,0.4,0.2999999999999999,3.0,-7.6,10.6,8.5,-1.9,10.4,1.0,0.6,0.4,7.0,0.8,6.2,113.6,106.4,7.199999999999989,110.6,114.0,-3.4000000000000057,0.8,0.2,0.6000000000000001,7.2,-5.4,12.6,0.6,0.2,0.3999999999999999,0.0,0.0,0,0.0,0,1,0,1,1,0.7645472540827931,0.23545274591720688,76.45472540827932,HOME,BOS,1,ELITE,0,1,0.5550756401872554,0.4449243598127446,55.50756401872554,HOME,BOS,0,PASS,75-79.9,55-59.9
401810259,2025-12-22,2025-26,NOP,DAL,1330.46090072439,1448.521103308554,-118.06020258416402,2.0,2.0,0.0,0,0,0,1,1,0,2,2,0,2,3,-1,0.8,0.6,0.2,0.4,0.6,-0.1999999999999999,10.8,1.8,9.0,0.0,0.2,-0.2,0.4,0.6,-0.1999999999999999,0.4,1.6,-1.2000000000000002,130.0,120.8,9.200000000000005,119.2,119.0,0.2000000000000028,0.6,0.4,0.1999999999999999,7.0,-4.2,11.2,0.4,0.2,0.2,0.0,0.0,0,0.0,0,1,1,1,0,0.40473062246413893,0.5952693775358611,59.526937753586104,AWAY,DAL,0,NORMAL,1,1,0.531476366654902,0.46852363334509795,53.147636665490204,HOME,NOP,1,PASS,55-59.9,50-54.9
401810260,2025-12-22,2025-26,DEN,UTA,1667.4453386020796,1339.849399552389,327.5959390496905,2.0,2.0,0.0,0,0,0,1,1,0,2,2,0,3,3,0,0.8,0.4,0.4,0.7,0.5,0.1999999999999999,8.0,-5.6,13.6,6.1,-6.0,12.1,0.4,0.6,-0.1999999999999999,1.0,-3.0,4.0,121.2,126.6,-5.399999999999992,113.2,132.2,-18.999999999999982,0.4,0.4,0.0,-2.6,-9.6,7.0,0.4,0.6,-0.1999999999999999,0.0,0.0,0,0.0,0,1,1,1,1,0.8453987230197126,0.15460127698028736,84.53987230197126,HOME,DEN,1,ELITE,1,1,0.5674551414922103,0.4325448585077897,56.74551414922103,HOME,DEN,1,PASS,80+,55-59.9
401810261,2025-12-22,2025-26,OKC,MEM,1802.5789778312935,1500.5761457275064,302.00283210378734,3.0,2.0,1.0,0,0,0,1,1,0,2,2,0,2,3,-1,0.6,0.6,0.0,0.8,0.7,0.1,18.6,7.0,11.6,14.6,5.5,9.1,0.8,0.6,0.2,11.0,4.0,7.0,121.4,120.8,0.6000000000000085,102.8,113.8,-11.0,0.8,0.8,0.0,18.6,6.0,12.6,0.4,0.2,0.2,0.0,0.0,0,0.0,0,1,1,1,1,0.7901673670297806,0.20983263297021937,79.01673670297806,HOME,OKC,1,ELITE,1,1,0.582775873177641,0.417224126822359,58.2775873177641,HOME,OKC,1,NORMAL,75-79.9,55-59.9
401810263,2025-12-22,2025-26,POR,DET,1484.1573531365048,1601.7954511258372,-117.63809798933244,2.0,2.0,0.0,0,0,0,1,1,0,2,2,0,2,3,-1,0.6,0.8,-0.2,0.4,0.7,-0.2999999999999999,-7.0,14.0,-21.0,-5.3,7.3,-12.6,0.4,0.6,-0.1999999999999999,-5.6,0.2,-5.8,116.8,120.8,-4.0,123.8,106.8,17.0,0.4,0.4,0.0,-3.2,0.2,-3.4000000000000004,0.6,0.6,0.0,0.0,0.0,0,0.0,0,0,0,0,1,0.5697497671368305,0.43025023286316955,56.97497671368305,HOME,POR,0,PASS,0,1,0.5340724841035133,0.46592751589648673,53.40724841035133,HOME,POR,0,PASS,55-59.9,50-54.9
401810274,2025-12-23,2025-26,UTA,MEM,1338.2772801020387,1498.776930817569,-160.4996507155306,1.0,1.0,0.0,1,1,0,2,2,0,3,2,1,3,3,0,0.4,0.4,0.0,0.4,0.6,-0.1999999999999999,-4.2,-0.8,-3.4000000000000004,-9.2,3.4,-12.6,0.6,0.4,0.1999999999999999,-3.0,-0.6,-2.4,128.8,117.6,11.200000000000015,133.0,118.4,14.599999999999994,0.4,0.6,-0.1999999999999999,-4.8,1.8,-6.6,0.4,0.2,0.2,0.0,0.0,0,0.0,0,0,0,0,0,0.23755447521675305,0.7624455247832469,76.24455247832469,AWAY,MEM,1,ELITE,0,1,0.5418152553074396,0.45818474469256043,54.181525530743954,HOME,UTA,0,PASS,75-79.9,50-54.9
401810275,2025-12-23,2025-26,POR,ORL,1474.664582729252,1527.392813556909,-52.728230827656944,1.0,1.0,0.0,1,1,0,2,2,0,3,3,0,3,3,0,0.6,0.4,0.1999999999999999,0.4,0.5,-0.0999999999999999,-4.0,-7.2,3.2,-4.8,-3.5,-1.2999999999999998,0.4,0.6,-0.1999999999999999,-2.4,-0.2,-2.2,118.0,115.4,2.5999999999999943,122.0,122.6,-0.5999999999999943,0.4,0.4,0.0,-4.6,-7.2,2.6000000000000005,0.4,0.4,0.0,0.0,0.0,0,0.0,0,0,0,0,1,0.5135418710830182,0.4864581289169818,51.354187108301815,HOME,POR,0,PASS,0,1,0.5507636701038366,0.44923632989616336,55.07636701038366,HOME,POR,0,PASS,50-54.9,55-59.9
401810266,2025-12-23,2025-26,ATL,CHI,1458.1070902249214,1464.198138227358,-6.091048002436537,2.0,2.0,0.0,0,0,0,1,1,0,3,2,1,3,3,0,0.2,0.8,-0.6000000000000001,0.3,0.4,-0.1,-12.2,4.4,-16.6,-6.3,-4.2,-2.1,0.2,0.4,-0.2,-1.8,1.6,-3.4000000000000004,121.8,129.6,-7.799999999999997,134.0,125.2,8.799999999999997,0.2,0.6,-0.3999999999999999,-10.2,1.8,-12.0,0.4,0.4,0.0,0.0,0.0,0,0.0,0,0,1,0,0,0.499026440103914,0.500973559896086,50.0973559896086,AWAY,CHI,1,PASS,1,1,0.5481855416637929,0.45181445833620715,54.818554166379286,HOME,ATL,1,PASS,50-54.9,50-54.9
401810277,2025-12-23,2025-26,LAC,HOU,1476.804336033114,1606.7026566708057,-129.89832063769177,3.0,2.0,1.0,0,0,0,1,2,-1,2,3,-1,2,3,-1,0.2,0.4,-0.2,0.2,0.5,-0.3,-5.8,1.4,-7.199999999999999,-4.1,5.9,-10.0,0.8,0.6,0.2,6.6,2.6,4.0,105.2,121.4,-16.200000000000003,111.0,120.0,-9.0,0.2,0.2,0.0,-5.2,-1.6,-3.6,0.8,0.6,0.2,0.0,0.0,0,0.0,0,1,0,1,0,0.2866848343378108,0.7133151656621892,71.33151656621892,AWAY,HOU,0,ELITE,0,1,0.5420826622609234,0.4579173377390766,54.20826622609234,HOME,LAC,0,PASS,70-74.9,50-54.9
401810273,2025-12-23,2025-26,PHX,LAL,1518.4445401912697,1613.5687940678763,-95.12425387660689,3.0,3.0,0.0,0,0,0,1,1,0,2,2,0,2,2,0,0.4,0.6,-0.1999999999999999,0.4,0.6,-0.1999999999999999,-10.0,-2.8,-7.2,-6.2,-2.7,-3.5,0.6,0.0,0.6,1.0,-7.2,8.2,105.2,115.6,-10.399999999999991,115.2,118.4,-3.200000000000003,0.4,0.6,-0.1999999999999999,-6.4,-4.4,-2.0,0.2,0.0,0.2,0.0,0.0,0,0.0,0,1,1,1,1,0.5638841404616333,0.43611585953836673,56.38841404616333,HOME,PHX,1,PASS,1,1,0.5302526872225177,0.4697473127774823,53.025268722251774,HOME,PHX,1,PASS,55-59.9,50-54.9
401810276,2025-12-23,2025-26,SAC,DET,1421.6993975603357,1611.28822153309,-189.58882397275443,2.0,1.0,1.0,0,1,-1,2,2,0,3,3,0,3,3,0,0.2,0.8,-0.6000000000000001,0.2,0.8,-0.6000000000000001,-10.0,13.2,-23.2,-8.8,8.4,-17.200000000000003,0.4,0.6,-0.1999999999999999,-1.4,-0.4,-1.0,111.8,118.0,-6.200000000000003,121.8,104.8,17.0,0.2,0.6,-0.3999999999999999,-11.0,2.4,-13.4,0.2,0.6,-0.3999999999999999,0.0,0.0,0,0.0,0,0,0,0,0,0.32820774523203683,0.6717922547679631,67.17922547679632,AWAY,DET,1,PREMIUM,0,1,0.5081864449807385,0.4918135550192615,50.81864449807385,HOME,SAC,0,PASS,65-69.9,50-54.9
401810272,2025-12-23,2025-26,SAS,OKC,1569.969227261288,1804.3781927412308,-234.4089654799429,2.0,1.0,1.0,0,1,-1,1,1,0,3,3,0,4,3,1,0.8,0.6,0.2,0.8,0.8,0.0,11.0,15.8,-4.800000000000001,6.7,15.4,-8.7,0.6,0.8,-0.2,1.8,6.6,-4.8,118.6,119.0,-0.4000000000000057,107.6,103.2,4.399999999999992,1.0,0.8,0.1999999999999999,12.8,15.4,-2.6,0.6,0.8,-0.2,0.0,0.0,0,0.0,0,1,1,1,0,0.43909439189274957,0.5609056081072504,56.090560810725044,AWAY,OKC,0,PASS,1,1,0.5114366077033172,0.4885633922966828,51.14366077033172,HOME,SAS,1,PASS,55-59.9,50-54.9
401810264,2025-12-23,2025-26,CHA,WAS,1301.362610253984,1255.3053206654656,46.057289588518415,1.0,2.0,-1.0,1,0,1,2,2,0,3,3,0,3,3,0,0.4,0.4,0.0,0.4,0.3,0.1,-4.2,-2.6,-1.6,-2.6,-12.2,9.6,0.6,0.2,0.3999999999999999,0.4,-4.4,4.800000000000001,119.2,114.2,5.0,123.4,116.8,6.6000000000000085,0.6,0.4,0.1999999999999999,1.8,-10.0,11.8,0.4,0.0,0.4,0.0,0.0,0,0.0,0,1,0,1,1,0.570420984940647,0.42957901505935303,57.042098494064696,HOME,CHA,1,NORMAL,0,1,0.5339809330143832,0.4660190669856168,53.39809330143832,HOME,CHA,0,PASS,55-59.9,50-54.9
401810270,2025-12-23,2025-26,DAL,DEN,1438.00175657918,1669.01745805243,-231.01570147324992,1.0,1.0,0.0,1,1,0,2,2,0,3,3,0,3,3,0,0.4,0.8,-0.4,0.6,0.8,-0.2,-2.0,10.8,-12.8,0.6,8.7,-8.1,0.4,0.6,-0.1999999999999999,0.6,6.0,-5.4,119.0,125.2,-6.200000000000003,121.0,114.4,6.599999999999994,0.8,1.0,-0.1999999999999999,5.4,14.8,-9.4,0.6,0.6,0.0,0.0,0.0,0,0.0,0,1,1,1,0,0.3212071972328442,0.6787928027671558,67.87928027671558,AWAY,DEN,0,PREMIUM,1,0,0.4940457724739784,0.5059542275260216,50.59542275260216,AWAY,DEN,0,PASS,65-69.9,50-54.9
401810269,2025-12-23,2025-26,MIA,TOR,1477.868527702598,1455.4948419442528,22.37368575834512,2.0,2.0,0.0,0,0,0,1,2,-1,3,3,0,3,3,0,0.2,0.4,-0.2,0.2,0.3,-0.0999999999999999,-5.6,-6.2,0.6000000000000005,-4.1,-8.6,4.5,0.6,0.6,0.0,4.2,-1.4,5.6,110.2,99.0,11.200000000000005,115.8,105.2,10.599999999999994,0.4,0.4,0.0,-1.8,-5.6,3.8,0.4,0.6,-0.1999999999999999,0.0,0.0,0,0.0,0,0,0,0,1,0.7451976069656892,0.25480239303431085,74.51976069656891,HOME,MIA,0,ELITE,0,1,0.5485316694564379,0.45146833054356206,54.85316694564379,HOME,MIA,0,PASS,70-74.9,50-54.9
401810268,2025-12-23,2025-26,IND,MIL,1469.356526017289,1455.895843986915,13.460682030374072,1.0,2.0,-1.0,1,0,1,2,1,1,3,2,1,3,2,1,0.0,0.2,-0.2,0.3,0.3,0.0,-11.4,-10.2,-1.200000000000001,-6.0,-5.7,-0.2999999999999998,0.6,0.2,0.3999999999999999,0.2,-5.0,5.2,102.2,103.0,-0.7999999999999972,113.6,113.2,0.3999999999999915,0.2,0.0,0.2,-8.0,-14.4,6.4,0.6,0.6,0.0,0.0,0.0,0,0.0,0,0,0,0,1,0.5138940866768084,0.48610591332319164,51.38940866768083,HOME,IND,0,PASS,0,1,0.5240778397733544,0.4759221602266456,52.40778397733544,HOME,IND,0,PASS,50-54.9,50-54.9
401810267,2025-12-23,2025-26,CLE,NOP,1548.516418878386,1340.9802474537642,207.5361714246219,1.0,1.0,0.0,1,1,0,1,2,-1,2,3,-1,3,3,0,0.4,1.0,-0.6,0.4,0.5,-0.0999999999999999,-4.8,12.6,-17.4,-1.4,1.4,-2.8,0.4,0.6,-0.1999999999999999,1.0,2.8,-1.7999999999999998,123.2,127.4,-4.200000000000003,128.0,114.8,13.200000000000005,0.4,0.2,0.2,-0.8,-6.2,5.4,0.2,0.4,-0.2,0.0,0.0,0,0.0,0,1,1,1,1,0.5740349953926029,0.42596500460739706,57.403499539260295,HOME,CLE,1,NORMAL,1,1,0.5630236217777218,0.4369763782222782,56.30236217777218,HOME,CLE,1,PASS,55-59.9,55-59.9
401810271,2025-12-23,2025-26,MIN,NYK,1636.1920787732597,1635.4333465188058,0.7587322544538893,2.0,2.0,0.0,0,0,0,1,1,0,2,3,-1,3,4,-1,0.8,0.8,0.0,0.8,0.8,0.0,4.6,4.4,0.1999999999999993,5.2,8.7,-3.499999999999999,0.2,0.0,0.2,-4.8,-4.6,-0.2000000000000001,113.8,121.8,-8.0,109.2,117.4,-8.200000000000003,0.6,0.8,-0.2,2.6,10.2,-7.6,0.0,0.4,-0.4,0.0,0.0,0,0.0,0,1,1,1,1,0.5202567164083404,0.47974328359165963,52.025671640834034,HOME,MIN,1,PASS,1,1,0.5660922877491718,0.43390771225082825,56.60922877491718,HOME,MIN,1,PASS,50-54.9,55-59.9
401810265,2025-12-23,2025-26,PHI,BKN,1425.979429657349,1316.555396017776,109.42403363957304,3.0,2.0,1.0,0,0,0,1,1,0,2,2,0,2,2,0,0.6,0.6,0.0,0.7,0.5,0.1999999999999999,3.8,11.8,-8.0,5.8,4.0,1.7999999999999998,0.4,0.8,-0.4,-0.4,5.4,-5.800000000000001,115.4,109.6,5.800000000000011,111.6,97.8,13.799999999999995,0.8,0.4,0.4,6.6,-3.4,10.0,0.8,0.4,0.4,0.0,0.0,0,0.0,0,0,0,0,1,0.7511535519493111,0.2488464480506889,75.11535519493111,HOME,PHI,0,ELITE,0,1,0.5367489594064849,0.4632510405935151,53.67489594064849,HOME,PHI,0,PASS,75-79.9,50-54.9
401809238,2025-12-25,2025-26,NYK,CLE,1628.2547585542457,1551.42646837751,76.82829017673566,2.0,2.0,0.0,0,0,0,1,2,-1,2,2,0,4,3,1,0.6,0.4,0.1999999999999999,0.8,0.5,0.3,-0.2,-1.0,0.8,8.2,1.1,7.1,0.0,0.4,-0.4,-4.6,0.8,-5.4,116.2,125.4,-9.200000000000005,116.4,126.4,-10.0,0.8,0.4,0.4,9.8,-2.8,12.6,0.4,0.8,-0.4,0.0,0.0,0,0.0,0,1,0,1,1,0.6683759437396146,0.3316240562603854,66.83759437396147,HOME,NYK,1,PREMIUM,0,1,0.5654578624477486,0.43454213755225135,56.54578624477487,HOME,NYK,0,PASS,65-69.9,55-59.9
401809239,2025-12-25,2025-26,OKC,SAS,1790.6916907838488,1583.65572921867,207.03596156517887,2.0,2.0,0.0,0,0,0,2,1,1,2,2,0,4,4,0,0.4,0.8,-0.4,0.7,0.8,-0.1,2.0,14.6,-12.6,13.0,8.0,5.0,0.6,0.8,-0.2,3.2,4.4,-1.2000000000000002,113.4,122.4,-9.0,111.4,107.8,3.6000000000000085,0.8,0.8,0.0,21.0,8.6,12.4,0.6,0.6,0.0,0.0,0.0,0,0.0,0,0,0,0,1,0.7791734915022196,0.2208265084977804,77.91734915022197,HOME,OKC,0,ELITE,0,1,0.5628865621098835,0.4371134378901165,56.28865621098835,HOME,OKC,0,PASS,75-79.9,55-59.9
401809240,2025-12-25,2025-26,GSW,DAL,1555.691454459743,1451.603563396803,104.08789106293966,3.0,2.0,1.0,0,0,0,1,2,-1,2,3,-1,3,4,-1,0.4,0.4,0.0,0.5,0.6,-0.0999999999999999,2.6,-3.4,6.0,4.5,0.3,4.2,0.2,0.6,-0.3999999999999999,-3.4,3.6,-7.0,117.6,121.4,-3.8000000000000114,115.0,124.8,-9.799999999999995,0.6,0.2,0.3999999999999999,3.0,-6.2,9.2,0.0,0.2,-0.2,0.0,0.0,0,0.0,0,1,1,1,1,0.7427876764530006,0.2572123235469994,74.27876764530006,HOME,GSW,1,ELITE,1,1,0.5561829773300742,0.44381702266992584,55.61829773300742,HOME,GSW,1,PASS,70-74.9,55-59.9
401809241,2025-12-25,2025-26,LAL,HOU,1603.70912011033,1595.8442317589197,7.864888351410627,2.0,2.0,0.0,0,0,0,1,1,0,2,3,-1,3,4,-1,0.4,0.2,0.2,0.5,0.4,0.0999999999999999,-8.4,-3.0,-5.4,-6.1,1.1,-7.199999999999999,0.0,0.8,-0.8,-7.8,3.8,-11.6,114.8,120.0,-5.200000000000003,123.2,123.0,0.2000000000000028,0.6,0.2,0.3999999999999999,1.8,-3.0,4.8,0.4,0.8,-0.4,0.0,0.0,0,0.0,0,0,0,0,0,0.43215707516322915,0.5678429248367709,56.78429248367709,AWAY,HOU,1,PASS,0,1,0.5387875657805427,0.46121243421945735,53.878756578054265,HOME,LAL,0,PASS,55-59.9,50-54.9
401809242,2025-12-25,2025-26,DEN,MIN,1655.4156512348063,1643.37066673782,12.044984496986672,2.0,2.0,0.0,0,0,0,2,1,1,3,2,1,4,3,1,0.6,0.8,-0.2,0.7,0.8,-0.1,4.4,5.4,-1.0,6.8,5.0,1.7999999999999998,0.4,0.2,0.2,0.2,-4.4,4.6000000000000005,124.0,111.4,12.599999999999994,119.6,106.0,13.599999999999994,0.6,0.6,0.0,2.6,2.0,0.6000000000000001,0.6,0.8,-0.2,0.0,0.0,0,0.0,0,1,1,1,1,0.6995606021823284,0.3004393978176716,69.95606021823284,HOME,DEN,1,PREMIUM,1,1,0.5436162655832524,0.4563837344167476,54.36162655832524,HOME,DEN,1,PASS,65-69.9,50-54.9
401810286,2025-12-26,2025-26,POR,LAC,1463.312325921684,1487.6627609450002,-24.35043502331609,3.0,3.0,0.0,0,0,0,1,1,0,2,1,1,3,2,1,0.6,0.4,0.1999999999999999,0.4,0.3,0.1,-0.2,-1.2,1.0,-4.4,-1.6,-2.8000000000000003,0.4,0.6,-0.1999999999999999,-1.4,3.0,-4.4,115.2,109.6,5.6000000000000085,115.4,110.8,4.6000000000000085,0.4,0.2,0.2,-2.8,-2.4,-0.3999999999999999,0.2,0.8,-0.6000000000000001,0.0,0.0,0,0.0,0,0,1,0,0,0.4357721542787983,0.5642278457212018,56.42278457212018,AWAY,LAC,1,PASS,1,1,0.5256392981107267,0.47436070188927326,52.563929811072676,HOME,POR,1,PASS,55-59.9,50-54.9
401810285,2025-12-26,2025-26,UTA,DET,1330.0012108323683,1618.7653179071708,-288.7641070748025,3.0,3.0,0.0,0,0,0,1,1,0,2,2,0,3,3,0,0.2,0.8,-0.6000000000000001,0.4,0.8,-0.4,-6.8,9.6,-16.4,-7.3,9.0,-16.3,0.4,0.6,-0.1999999999999999,-5.2,2.0,-7.2,128.4,116.8,11.600000000000009,135.2,107.2,27.999999999999982,0.2,0.6,-0.3999999999999999,-8.2,3.6,-11.8,0.4,0.6,-0.1999999999999999,0.0,0.0,0,0.0,0,1,0,1,0,0.31070351617790115,0.6892964838220988,68.92964838220989,AWAY,DET,0,PREMIUM,0,1,0.5399363508563617,0.4600636491436383,53.99363508563617,HOME,UTA,0,PASS,65-69.9,50-54.9
401810284,2025-12-26,2025-26,NOP,PHX,1338.0701979546402,1528.304214148816,-190.2340161941759,3.0,3.0,0.0,0,0,0,1,1,0,2,1,1,3,2,1,0.8,0.4,0.4,0.5,0.4,0.0999999999999999,3.4,-5.8,9.2,0.3,-5.0,5.3,0.4,0.6,-0.1999999999999999,-1.0,0.4,-1.4,122.4,110.0,12.400000000000006,119.0,115.8,3.200000000000003,0.8,0.4,0.4,10.0,-10.2,20.2,0.6,0.6,0.0,0.0,0.0,0,0.0,0,0,0,0,1,0.509444514753989,0.490555485246011,50.9444514753989,HOME,NOP,0,PASS,0,1,0.5218303516058274,0.47816964839417264,52.18303516058273,HOME,NOP,0,PASS,50-54.9,50-54.9
401810283,2025-12-26,2025-26,MEM,MIL,1507.0530000872398,1469.0501629167493,38.00283717049047,3.0,3.0,0.0,0,0,0,1,1,0,2,2,0,3,2,1,0.6,0.4,0.1999999999999999,0.6,0.4,0.1999999999999999,1.8,-4.4,6.2,3.8,-3.1,6.9,0.6,0.4,0.1999999999999999,1.6,-2.4,4.0,119.8,102.8,17.0,118.0,107.2,10.799999999999995,0.4,0.2,0.2,2.0,-9.2,11.2,0.4,0.6,-0.1999999999999999,0.0,0.0,0,0.0,0,1,0,1,1,0.6744612612758522,0.32553873872414785,67.44612612758522,HOME,MEM,1,PREMIUM,0,1,0.5453638083821111,0.45463619161788893,54.53638083821111,HOME,MEM,0,PASS,65-69.9,50-54.9
401810278,2025-12-26,2025-26,ATL,MIA,1445.4681278865846,1464.4851008210655,-19.01697293448092,3.0,3.0,0.0,0,0,0,1,1,0,2,2,0,3,3,0,0.2,0.2,0.0,0.2,0.2,0.0,-7.4,-8.0,0.5999999999999996,-7.4,-5.9,-1.5,0.4,0.4,0.0,-0.4,0.6,-1.0,123.4,106.8,16.60000000000001,130.8,114.8,16.000000000000014,0.2,0.2,0.0,-6.2,-3.8,-2.4000000000000004,0.6,0.6,0.0,0.0,0.0,0,0.0,0,0,0,0,1,0.6506597128239451,0.3493402871760549,65.06597128239451,HOME,ATL,0,PREMIUM,0,1,0.5403585054255028,0.4596414945744972,54.03585054255028,HOME,ATL,0,PASS,65-69.9,50-54.9
401810281,2025-12-26,2025-26,IND,BOS,1456.2022070874548,1641.275241325686,-185.07303423823123,3.0,4.0,-1.0,0,0,0,1,0,1,2,1,1,3,3,0,0.0,0.6,-0.6,0.2,0.8,-0.6000000000000001,-12.8,3.0,-15.8,-7.9,9.7,-17.6,0.6,0.8,-0.2,-0.4,3.6,-4.0,100.0,110.0,-10.0,112.8,107.0,5.799999999999997,0.2,0.8,-0.6000000000000001,-8.2,11.2,-19.4,0.6,1.0,-0.4,0.0,0.0,0,0.0,0,0,1,0,0,0.26790479595257,0.73209520404743,73.209520404743,AWAY,BOS,1,ELITE,1,0,0.49741708630479575,0.5025829136952042,50.25829136952042,AWAY,BOS,0,PASS,70-74.9,50-54.9
401810280,2025-12-26,2025-26,WAS,TOR,1249.2778819905225,1468.8782688257852,-219.60038683526275,3.0,3.0,0.0,0,0,0,1,1,0,2,2,0,3,3,0,0.4,0.6,-0.1999999999999999,0.3,0.4,-0.1,-5.2,1.2,-6.4,-10.6,-4.3,-6.3,0.4,0.6,-0.1999999999999999,-0.8,-1.2,0.3999999999999999,110.8,101.2,9.599999999999994,116.0,100.0,16.0,0.2,0.6,-0.3999999999999999,-14.4,0.0,-14.4,0.2,0.6,-0.3999999999999999,0.0,0.0,0,0.0,0,1,1,1,0,0.3214821434176187,0.6785178565823813,67.85178565823813,AWAY,TOR,0,PREMIUM,1,1,0.5261157898909669,0.47388421010903314,52.611578989096685,HOME,WAS,1,PASS,65-69.9,50-54.9
401810279,2025-12-26,2025-26,ORL,CHA,1538.745070364477,1307.3900489289272,231.35502143554984,3.0,3.0,0.0,0,0,0,1,1,0,2,2,0,3,3,0,0.4,0.6,-0.1999999999999999,0.5,0.4,0.0999999999999999,-8.2,-0.2,-7.999999999999999,-3.4,-1.6,-1.7999999999999998,0.8,0.6,0.2,3.2,-0.2,3.4000000000000004,114.0,119.2,-5.200000000000003,122.2,119.4,2.799999999999997,0.6,0.4,0.1999999999999999,0.2,-3.0,3.2,0.6,0.4,0.1999999999999999,0.0,0.0,0,0.0,0,0,0,0,1,0.6138998059458516,0.3861001940541484,61.38998059458516,HOME,ORL,0,STRONG,0,1,0.5587466356246683,0.4412533643753317,55.87466356246683,HOME,ORL,0,PASS,60-64.9,55-59.9
401810282,2025-12-26,2025-26,CHI,PHI,1476.8371005656948,1410.5892467771666,66.24785378852812,3.0,3.0,0.0,0,0,0,1,1,0,2,1,1,3,3,0,0.8,0.6,0.2,0.5,0.6,-0.0999999999999999,4.4,3.0,1.4000000000000004,-3.7,3.8,-7.5,0.2,0.4,-0.2,-0.4,-0.4,0.0,129.0,115.0,14.0,124.6,112.0,12.599999999999994,0.2,0.8,-0.6000000000000001,-10.2,8.4,-18.6,0.4,0.6,-0.1999999999999999,0.0,0.0,0,0.0,0,1,1,1,1,0.6587038779654946,0.34129612203450543,65.87038779654945,HOME,CHI,1,PREMIUM,1,1,0.5476391813947956,0.4523608186052044,54.763918139479564,HOME,CHI,1,PASS,65-69.9,50-54.9
401810292,2025-12-27,2025-26,CHI,MIL,1482.386687205627,1462.8257043102246,19.56098289540205,1.0,1.0,0.0,1,1,0,1,1,0,2,2,0,3,3,0,1.0,0.2,0.8,0.6,0.3,0.3,7.8,-11.6,19.4,-2.5,-6.9,4.4,0.2,0.6,-0.3999999999999999,-1.0,0.8,-1.8,130.0,100.4,29.599999999999994,122.2,112.0,10.200000000000005,0.4,0.2,0.2,-6.8,-12.8,6.000000000000001,0.6,0.6,0.0,0.0,0.0,0,0.0,0,0,0,0,1,0.7424729826402514,0.2575270173597486,74.24729826402515,HOME,CHI,0,ELITE,0,1,0.549955626300245,0.45004437369975503,54.995562630024494,HOME,CHI,0,PASS,70-74.9,50-54.9
401810294,2025-12-27,2025-26,MIN,BKN,1636.4882458197526,1331.9455788979585,304.5426669217941,2.0,4.0,-2.0,0,0,0,1,0,1,2,1,1,3,2,1,0.6,0.6,0.0,0.7,0.6,0.0999999999999999,1.8,9.8,-8.0,3.9,6.0,-2.1,0.2,0.6,-0.3999999999999999,-3.6,3.2,-6.800000000000001,115.6,108.6,7.0,113.8,98.8,15.0,0.8,0.4,0.4,5.4,-3.4,8.8,0.2,0.4,-0.2,0.0,0.0,0,0.0,0,0,0,0,1,0.6471980562583663,0.35280194374163365,64.71980562583664,HOME,MIN,0,STRONG,0,1,0.5506894973351477,0.4493105026648523,55.06894973351477,HOME,MIN,0,PASS,60-64.9,55-59.9
401810295,2025-12-27,2025-26,SAS,UTA,1600.7385123076292,1344.9560807186983,255.78243158893088,2.0,1.0,1.0,0,1,-1,1,1,0,2,3,-1,3,4,-1,1.0,0.2,0.8,0.8,0.4,0.4,19.8,-7.8,27.6,9.3,-7.9,17.200000000000003,0.8,0.4,0.4,5.0,-4.6,9.6,123.2,126.6,-3.3999999999999915,103.4,134.4,-31.0,1.0,0.4,0.6,14.2,-11.4,25.6,0.6,0.4,0.1999999999999999,0.0,0.0,0,0.0,0,0,1,0,1,0.842135152813549,0.157864847186451,84.2135152813549,HOME,SAS,0,ELITE,1,1,0.5501570855817374,0.44984291441826263,55.015708558173735,HOME,SAS,1,PASS,80+,55-59.9
401810291,2025-12-27,2025-26,MIA,IND,1476.7746651348375,1448.6030153004483,28.1716498343892,1.0,1.0,0.0,1,1,0,1,1,0,2,3,-1,3,4,-1,0.4,0.0,0.4,0.2,0.2,0.0,-3.0,-12.6,9.6,-6.1,-8.1,2.0,0.4,0.6,-0.1999999999999999,0.8,1.6,-0.8,112.8,106.6,6.200000000000003,115.8,119.2,-3.4000000000000057,0.2,0.2,0.0,-6.6,-4.8,-1.7999999999999998,0.2,0.4,-0.2,0.0,0.0,0,0.0,0,1,1,1,1,0.6026954291702574,0.3973045708297426,60.269542917025746,HOME,MIA,1,STRONG,1,1,0.5335475822270345,0.46645241777296553,53.354758222703445,HOME,MIA,1,PASS,60-64.9,50-54.9
401810293,2025-12-27,2025-26,HOU,CLE,1608.852787899252,1546.1177565414569,62.73503135779515,2.0,2.0,0.0,0,0,0,1,1,0,2,3,-1,4,3,1,0.4,0.4,0.0,0.5,0.4,0.0999999999999999,2.2,0.2,2.0,4.2,-0.7,4.9,0.8,0.6,0.2,5.0,4.6,0.4000000000000003,118.8,128.0,-9.200000000000005,116.6,127.8,-11.200000000000005,0.8,0.4,0.4,9.6,-1.0,10.6,0.2,0.8,-0.6000000000000001,0.0,0.0,0,0.0,0,1,1,1,1,0.6317730625881148,0.36822693741188517,63.177306258811484,HOME,HOU,1,STRONG,1,1,0.5435432903816557,0.4564567096183443,54.354329038165574,HOME,HOU,1,PASS,60-64.9,50-54.9
401810289,2025-12-27,2025-26,NOP,PHX,1330.6104815464664,1535.76393055699,-205.15344901052345,1.0,1.0,0.0,1,1,0,1,1,0,3,2,1,4,3,1,0.6,0.6,0.0,0.5,0.5,0.0,0.0,5.4,-5.4,0.3,-3.9,4.2,0.4,0.8,-0.4,-0.6,4.0,-4.6,121.2,115.2,6.0,121.2,109.8,11.400000000000006,0.8,0.4,0.4,9.2,-12.2,21.4,0.6,0.8,-0.2,0.0,0.0,0,0.0,0,0,1,0,0,0.45800433467471924,0.5419956653252808,54.199566532528074,AWAY,PHX,1,PASS,1,1,0.509818508932758,0.49018149106724196,50.981850893275805,HOME,NOP,1,PASS,50-54.9,50-54.9
401810288,2025-12-27,2025-26,ORL,DEN,1521.3304610622913,1662.2980721528738,-140.96761109058252,1.0,2.0,-1.0,1,0,1,1,1,0,3,3,0,4,4,0,0.4,0.6,-0.1999999999999999,0.4,0.8,-0.4,-8.8,4.6,-13.4,-5.4,8.2,-13.6,0.6,0.6,0.0,0.6,2.0,-1.4,111.0,126.8,-15.799999999999995,119.8,122.2,-2.4000000000000057,0.4,0.8,-0.4,-3.8,11.0,-14.8,0.4,0.4,0.0,0.0,0.0,0,0.0,0,1,0,1,0,0.3072067847935248,0.6927932152064752,69.27932152064751,AWAY,DEN,0,PREMIUM,0,1,0.5097365540698484,0.4902634459301516,50.97365540698484,HOME,ORL,0,PASS,65-69.9,50-54.9
401810287,2025-12-27,2025-26,SAC,DAL,1414.2223011862543,1446.883882004261,-32.66158081800654,4.0,2.0,2.0,0,0,0,0,1,-1,1,3,-2,3,4,-1,0.2,0.4,-0.2,0.2,0.5,-0.3,-5.6,-4.0,-1.5999999999999996,-8.8,-1.7,-7.1000000000000005,0.4,0.4,0.0,-1.0,0.0,-1.0,116.2,118.0,-1.7999999999999972,121.8,122.0,-0.2000000000000028,0.2,0.0,0.2,-10.4,-10.2,-0.200000000000001,0.2,0.2,0.0,0.0,0.0,0,0.0,0,1,1,1,1,0.5449457727072167,0.45505422729278333,54.49457727072166,HOME,SAC,1,PASS,1,1,0.5104354993557016,0.48956450064429835,51.04354993557016,HOME,SAC,1,PASS,50-54.9,50-54.9
401810290,2025-12-27,2025-26,ATL,NYK,1433.1785635728124,1633.5634703902988,-200.38490681748635,1.0,2.0,-1.0,1,0,1,1,1,0,2,2,0,3,3,0,0.0,0.6,-0.6,0.2,0.8,-0.6000000000000001,-11.0,-2.0,-9.0,-8.8,6.9,-15.7,0.2,0.0,0.2,-2.4,-7.2,4.800000000000001,121.6,116.6,5.0,132.6,118.6,14.0,0.2,0.6,-0.3999999999999999,-9.0,2.4,-11.4,0.4,0.2,0.2,0.0,0.0,0,0.0,0,0,0,0,0,0.37073502516557466,0.6292649748344253,62.92649748344253,AWAY,NYK,1,STRONG,0,1,0.5096949557666377,0.4903050442333623,50.96949557666377,HOME,ATL,0,PASS,60-64.9,50-54.9
401810296,2025-12-28,2025-26,TOR,GSW,1455.5657161289992,1560.4111358522853,-104.84541972328611,2.0,3.0,-1.0,0,0,0,1,1,0,2,1,1,3,2,1,0.4,0.6,-0.1999999999999999,0.3,0.5,-0.2,-5.0,6.0,-11.0,-6.7,4.7,-11.4,0.4,0.4,0.0,-2.0,-0.8,-1.2,103.4,118.8,-15.399999999999991,108.4,112.8,-4.399999999999992,0.0,0.4,-0.4,-13.6,6.0,-19.6,0.4,0.4,0.0,0.0,0.0,0,0.0,0,1,1,1,0,0.2619749543365168,0.7380250456634831,73.80250456634832,AWAY,GSW,0,ELITE,1,1,0.5013887111824754,0.4986112888175246,50.13887111824754,HOME,TOR,1,PASS,70-74.9,50-54.9
401810297,2025-12-28,2025-26,OKC,PHI,1773.6089076948897,1405.0396601372347,368.5692475576548,3.0,2.0,1.0,0,0,0,1,1,0,2,2,0,3,2,1,0.4,0.4,0.0,0.6,0.6,0.0,-0.6,-0.4,-0.1999999999999999,10.7,3.9,6.799999999999999,0.4,0.2,0.2,0.0,-1.4,1.4,112.0,112.4,-0.4000000000000057,112.6,112.8,-0.2000000000000028,0.6,0.6,0.0,13.8,5.2,8.600000000000001,0.6,0.4,0.1999999999999999,0.0,0.0,0,0.0,0,1,1,1,1,0.8178707292511957,0.18212927074880425,81.78707292511957,HOME,OKC,1,ELITE,1,1,0.5548362288614879,0.44516377113851213,55.48362288614879,HOME,OKC,1,PASS,80+,55-59.9
401810298,2025-12-28,2025-26,WAS,MEM,1262.5904346873083,1513.2774586937644,-250.68702400645589,2.0,2.0,0.0,0,0,0,1,1,0,2,2,0,3,3,0,0.4,0.6,-0.1999999999999999,0.3,0.6,-0.3,-4.8,2.4,-7.199999999999999,-8.8,5.1,-13.9,0.6,0.6,0.0,0.0,0.0,0.0,116.8,120.6,-3.799999999999997,121.6,118.2,3.3999999999999915,0.2,0.6,-0.3999999999999999,-10.8,2.0,-12.8,0.4,0.4,0.0,0.0,0.0,0,0.0,0,1,0,1,0,0.28509519132354366,0.7149048086764563,71.49048086764563,AWAY,MEM,0,ELITE,0,1,0.5111687173233791,0.4888312826766209,51.11687173233791,HOME,WAS,0,PASS,70-74.9,50-54.9
